; generated by Slic3r 1.3.0 on 2023-01-27 at 14:40:49

; external perimeters extrusion width = 0.55mm (5.57mm^3/s)
; perimeters extrusion width = 0.58mm (11.78mm^3/s)
; infill extrusion width = 0.58mm (15.71mm^3/s)
; solid infill extrusion width = 0.58mm (3.93mm^3/s)
; top infill extrusion width = 0.58mm (2.95mm^3/s)

M107
M104 S205 ; set temperature
G28 ; home all axes
G1 Z5 F5000 ; lift nozzle

; Filament gcode

M109 S205 ; set temperature and wait for it to be reached
G21 ; set units to millimeters
G90 ; use absolute coordinates
M82 ; use absolute distances for extrusion
G92 E0
G1 Z0.500 F7800.000
G1 E-2.00000 F2400.00000
G92 E0
G1 X24.751 Y22.492 F7800.000
G1 E2.00000 F2400.00000
G1 F1800
G1 X26.520 Y20.960 E2.14774
G1 X28.700 Y20.109 E2.29548
G1 X30.082 Y19.969 E2.38322
G1 X113.030 Y19.969 E7.62102
G1 X115.336 Y20.366 E7.76876
G1 X116.649 Y20.996 E7.86075
G1 X163.649 Y49.996 E11.34807
G1 X165.403 Y51.544 E11.49582
G1 X166.538 Y53.590 E11.64356
G1 X166.867 Y54.990 E11.73436
G1 X176.894 Y133.666 E16.74254
G1 X176.949 Y134.537 E16.79768
G1 X176.949 Y167.487 E18.87832
G1 X176.552 Y169.793 E19.02606
G1 X175.407 Y171.833 E19.17381
G1 X173.645 Y173.372 E19.32155
G1 X170.607 Y174.358 E19.52320
G1 X98.774 Y180.113 E24.07366
G1 X98.224 Y180.135 E24.10845
G1 X97.058 Y180.135 E24.18202
G1 X96.197 Y180.080 E24.23653
G1 X94.938 Y179.921 E24.31663
G1 X94.292 Y179.801 E24.35815
G1 X92.743 Y179.436 E24.45864
G1 X91.884 Y179.173 E24.51537
G1 X90.913 Y178.805 E24.58092
G1 X89.799 Y178.313 E24.65784
G1 X89.123 Y177.955 E24.70614
G1 X87.866 Y177.198 E24.79879
G1 X87.408 Y176.891 E24.83360
G1 X25.771 Y131.805 E29.65584
G1 X24.144 Y130.123 E29.80358
G1 X23.174 Y127.994 E29.95132
G1 X22.947 Y126.242 E30.06290
G1 X22.947 Y80.831 E32.93042
G1 X23.189 Y26.831 E36.34032
G1 X23.597 Y24.527 E36.48806
G1 X24.714 Y22.557 E36.63106
G1 E34.63106 F2400.00000
G92 E0
G1 X94.191 Y154.091 F7800.000
G1 E2.00000 F2400.00000
G1 F1800
G1 X95.362 Y153.649 E2.07902
G1 X96.554 Y153.401 E2.15590
G1 X97.815 Y153.329 E2.23568
G1 X98.984 Y153.417 E2.30967
G1 X100.126 Y153.658 E2.38340
G1 X101.257 Y154.064 E2.45926
G1 X102.206 Y154.542 E2.52636
G1 X103.193 Y155.218 E2.60194
G1 X104.122 Y156.068 E2.68141
G1 X104.880 Y156.980 E2.75632
G1 X105.353 Y157.720 E2.81177
G1 X105.466 Y157.903 E2.82535
G1 X106.025 Y159.150 E2.91165
G1 X106.310 Y160.133 E2.97627
G1 X106.432 Y160.724 E3.01436
G1 X106.541 Y162.435 E3.12263
G1 X106.479 Y163.150 E3.16793
G1 X106.270 Y164.346 E3.24461
G1 X106.069 Y165.006 E3.28818
G1 X105.601 Y166.100 E3.36334
G1 X104.401 Y167.915 E3.50067
G1 X103.677 Y168.664 E3.56649
G1 X102.639 Y169.472 E3.64952
G1 X101.930 Y169.903 E3.70194
G1 X101.109 Y170.291 E3.75930
G1 X99.620 Y170.758 E3.85783
G1 X98.077 Y170.956 E3.95605
G1 X97.202 Y170.956 E4.01131
G1 X96.281 Y170.840 E4.06992
G1 X94.996 Y170.537 E4.15330
G1 X94.216 Y170.241 E4.20598
G1 X93.746 Y170.026 E4.23863
G1 X92.757 Y169.431 E4.31149
G1 X92.172 Y168.990 E4.35775
G1 X91.780 Y168.666 E4.38986
G1 X90.852 Y167.667 E4.47597
G1 X90.439 Y167.096 E4.52044
G1 X89.847 Y166.107 E4.59325
G1 X89.333 Y164.853 E4.67884
G1 X89.056 Y163.746 E4.75091
G1 X88.921 Y162.440 E4.83382
G1 X88.941 Y161.372 E4.90126
G1 X89.168 Y160.034 E4.98692
G1 X89.437 Y159.136 E5.04614
G1 X90.004 Y157.881 E5.13311
G1 X90.582 Y156.972 E5.20112
G1 X91.618 Y155.781 E5.30081
G1 X92.002 Y155.431 E5.33359
G1 X92.881 Y154.781 E5.40265
G1 X94.007 Y154.161 E5.48383
G1 X94.121 Y154.118 E5.49150
G1 X93.876 Y153.256 F7800.000
G1 F1800
G1 X95.112 Y152.789 E5.57493
G1 X96.437 Y152.514 E5.66040
G1 X97.823 Y152.435 E5.74808
G1 X99.110 Y152.531 E5.82955
G1 X100.370 Y152.797 E5.91092
G1 X101.610 Y153.242 E5.99406
G1 X102.661 Y153.772 E6.06837
G1 X103.749 Y154.517 E6.15169
G1 X104.770 Y155.450 E6.23899
G1 X105.602 Y156.453 E6.32129
G1 X106.109 Y157.246 E6.38071
G1 X106.256 Y157.485 E6.39843
G1 X106.865 Y158.842 E6.49236
G1 X107.177 Y159.918 E6.56310
G1 X107.319 Y160.604 E6.60735
G1 X107.437 Y162.460 E6.72478
G1 X107.367 Y163.253 E6.77505
G1 X107.140 Y164.554 E6.85844
G1 X106.908 Y165.313 E6.90853
G1 X106.390 Y166.525 E6.99182
G1 X105.101 Y168.476 E7.13943
G1 X104.275 Y169.330 E7.21445
G1 X103.147 Y170.208 E7.30473
G1 X102.354 Y170.690 E7.36334
G1 X101.435 Y171.124 E7.42753
G1 X99.812 Y171.633 E7.53492
G1 X98.134 Y171.849 E7.64173
G1 X97.146 Y171.849 E7.70414
G1 X96.122 Y171.720 E7.76929
G1 X94.734 Y171.393 E7.85935
G1 X93.871 Y171.065 E7.91765
G1 X93.328 Y170.816 E7.95536
G1 X92.258 Y170.172 E8.03427
G1 X91.619 Y169.691 E8.08476
G1 X91.166 Y169.316 E8.12186
G1 X90.161 Y168.235 E8.21509
G1 X89.693 Y167.588 E8.26548
G1 X89.046 Y166.508 E8.34499
G1 X88.482 Y165.132 E8.43889
G1 X88.174 Y163.901 E8.51905
G1 X88.028 Y162.477 E8.60940
G1 X88.050 Y161.289 E8.68447
G1 X88.297 Y159.831 E8.77782
G1 X88.599 Y158.823 E8.84429
G1 X89.217 Y157.456 E8.93903
G1 X89.865 Y156.437 E9.01526
G1 X90.979 Y155.156 E9.12243
G1 X91.434 Y154.741 E9.16136
G1 X92.398 Y154.027 E9.23709
G1 X93.632 Y153.348 E9.32606
G1 X93.806 Y153.283 E9.33774
G1 X93.560 Y152.421 F7800.000
G1 F1800
G1 X94.861 Y151.930 E9.42557
G1 X96.320 Y151.626 E9.51964
G1 X97.831 Y151.540 E9.61521
G1 X99.236 Y151.645 E9.70416
G1 X100.615 Y151.936 E9.79317
G1 X101.963 Y152.421 E9.88361
G1 X103.115 Y153.001 E9.96511
G1 X104.306 Y153.816 E10.05617
G1 X105.417 Y154.833 E10.15132
G1 X106.325 Y155.925 E10.24099
G1 X106.865 Y156.771 E10.30439
G1 X107.047 Y157.066 E10.32625
G1 X107.705 Y158.534 E10.42781
G1 X108.044 Y159.703 E10.50466
G1 X108.206 Y160.484 E10.55508
G1 X108.333 Y162.485 E10.68167
G1 X108.281 Y162.915 E10.70903
G1 X108.256 Y163.356 E10.73694
G1 X108.010 Y164.762 E10.82703
G1 X107.748 Y165.619 E10.88364
G1 X107.179 Y166.950 E10.97506
G1 X105.800 Y169.037 E11.13296
G1 X104.873 Y169.996 E11.21718
G1 X103.655 Y170.944 E11.31470
G1 X102.777 Y171.477 E11.37950
G1 X101.761 Y171.958 E11.45053
G1 X100.004 Y172.509 E11.56678
G1 X98.192 Y172.742 E11.68217
G1 X97.090 Y172.742 E11.75173
G1 X95.964 Y172.600 E11.82341
G1 X94.472 Y172.248 E11.92017
G1 X93.526 Y171.889 E11.98407
G1 X92.910 Y171.606 E12.02685
G1 X91.758 Y170.913 E12.11181
G1 X91.065 Y170.392 E12.16654
G1 X90.552 Y169.966 E12.20862
G1 X89.470 Y168.803 E12.30896
G1 X88.947 Y168.080 E12.36527
G1 X88.246 Y166.909 E12.45149
G1 X87.632 Y165.411 E12.55369
G1 X87.293 Y164.055 E12.64195
G1 X87.134 Y162.515 E12.73973
G1 X87.158 Y161.205 E12.82244
G1 X87.426 Y159.628 E12.92349
G1 X87.761 Y158.509 E12.99720
G1 X88.430 Y157.030 E13.09971
G1 X89.147 Y155.901 E13.18417
G1 X90.339 Y154.531 E13.29881
G1 X90.866 Y154.050 E13.34390
G1 X91.915 Y153.274 E13.42630
G1 X93.258 Y152.535 E13.52305
G1 X93.490 Y152.448 E13.53874
G1 X93.959 Y152.722 F7800.000
G1 E11.53874 F2400.00000
G92 E0
G1 X91.913 Y156.751 F7800.000
G1 E2.00000 F2400.00000
G1 F1800
G1 X92.607 Y156.057 E2.06476
G1 X92.917 Y155.774 E2.09241
G1 X93.711 Y155.187 E2.15756
G1 X94.729 Y154.626 E2.23421
G1 X95.736 Y154.246 E2.30521
G1 X89.817 Y160.165 E2.85723
G1 X89.692 Y160.585 E2.88615
G1 X89.485 Y161.816 E2.96845
G1 X97.380 Y153.921 E3.70476
G1 X98.155 Y153.877 E3.75592
G1 X98.702 Y153.918 E3.79210
G1 X89.505 Y163.114 E4.64977
G1 X89.590 Y163.938 E4.70442
G1 X89.672 Y164.266 E4.72668
G1 X99.847 Y154.091 E5.67562
G1 X100.229 Y154.172 E5.70137
G1 X100.858 Y154.398 E5.74548
G1 X89.981 Y165.275 E6.75993
G1 X90.300 Y166.053 E6.81541
G1 X90.383 Y166.192 E6.82603
G1 X101.773 Y154.802 E7.88827
G1 X102.098 Y154.966 E7.91229
G1 X102.590 Y155.302 E7.95164
G1 X90.881 Y167.012 E9.04368
G1 X91.196 Y167.446 E9.07905
G1 X91.470 Y167.741 E9.10562
G1 X103.326 Y155.885 E10.21137
G1 X103.822 Y156.338 E10.25562
G1 X103.990 Y156.540 E10.27297
G1 X92.113 Y168.417 E11.38061
G1 X92.854 Y168.994 E11.44256
G1 X104.576 Y157.273 E12.53576
G1 X105.025 Y157.980 E12.59101
G1 X105.075 Y158.092 E12.59910
G1 X93.672 Y169.495 E13.66257
G1 X93.817 Y169.582 E13.67372
G1 X94.214 Y169.765 E13.70254
G1 X94.581 Y169.904 E13.72846
G1 X105.483 Y159.002 E14.74519
G1 X105.532 Y159.111 E14.75307
G1 X105.792 Y160.012 E14.81488
G1 X95.610 Y170.194 E15.76448
G1 X96.093 Y170.308 E15.79719
G1 X96.734 Y170.389 E15.83979
G1 X105.936 Y161.186 E16.69806
G1 X105.993 Y162.078 E16.75699
G1 X105.958 Y162.483 E16.78380
G1 X98.082 Y170.358 E17.51828
G1 X99.081 Y170.230 E17.58466
G1 X99.734 Y170.025 E17.62982
G1 X105.650 Y164.109 E18.18156
G1 X105.576 Y164.352 E18.19832
G1 X105.159 Y165.328 E18.26833
G1 X104.049 Y167.006 E18.40100
G1 X102.731 Y168.346 E18.52494
G1 E16.52494 F2400.00000
G92 E0
G1 X127.947 Y162.516 F7800.000
G1 E2.00000 F2400.00000
G1 F1800
G1 X128.254 Y161.915 E2.04261
G1 X128.731 Y161.438 E2.08520
G1 X129.332 Y161.133 E2.12778
G1 X129.975 Y161.030 E2.16891
G1 X130.661 Y161.131 E2.21269
G1 X131.264 Y161.438 E2.25546
G1 X131.741 Y161.915 E2.29805
G1 X132.049 Y162.517 E2.34069
G1 X132.153 Y163.183 E2.38329
G1 X132.049 Y163.849 E2.42588
G1 X131.742 Y164.450 E2.46850
G1 X131.265 Y164.929 E2.51113
G1 X130.663 Y165.234 E2.55374
G1 X129.997 Y165.340 E2.59635
G1 X129.332 Y165.234 E2.63889
G1 X128.730 Y164.929 E2.68149
G1 X128.253 Y164.450 E2.72413
G1 X127.947 Y163.850 E2.76672
G1 X127.841 Y163.183 E2.80935
G1 X127.935 Y162.590 E2.84725
G1 X127.947 Y162.516 F7800.000
G1 E0.84725 F2400.00000
G92 E0
G1 X140.827 Y164.694 F7800.000
G1 E2.00000 F2400.00000
G1 F1800
G1 X140.827 Y149.960 E2.93039
G1 X155.621 Y149.960 E3.86456
G1 X155.621 Y164.694 E4.79495
G1 X140.902 Y164.694 E5.72439
G1 X140.344 Y164.823 F7800.000
G1 E3.72439 F2400.00000
G92 E0
G1 X162.965 Y163.073 F7800.000
G1 E2.00000 F2400.00000
G1 F1800
G1 X163.071 Y162.406 E2.04262
G1 X163.376 Y161.806 E2.08515
G1 X163.853 Y161.330 E2.12772
G1 X164.455 Y161.022 E2.17036
G1 X165.099 Y160.921 E2.21154
G1 X165.785 Y161.021 E2.25531
G1 X166.389 Y161.330 E2.29814
G1 X166.866 Y161.806 E2.34071
G1 X167.171 Y162.406 E2.38324
G1 X167.277 Y163.073 E2.42586
G1 X167.171 Y163.739 E2.46846
G1 X166.866 Y164.340 E2.51103
G1 X166.389 Y164.819 E2.55369
G1 X165.787 Y165.124 E2.59629
G1 X165.121 Y165.230 E2.63890
G1 X164.455 Y165.124 E2.68151
G1 X163.853 Y164.819 E2.72411
G1 X163.376 Y164.340 E2.76677
G1 X163.071 Y163.739 E2.80933
G1 X162.977 Y163.147 E2.84720
G1 X162.965 Y163.073 F7800.000
G1 E0.84720 F2400.00000
G92 E0
G1 X149.318 Y144.552 F7800.000
G1 E2.00000 F2400.00000
G1 F1800
G1 X148.519 Y144.957 E2.05658
G1 X147.637 Y145.097 E2.11295
G1 X146.731 Y144.954 E2.17088
G1 X145.931 Y144.529 E2.22807
G1 X145.320 Y143.918 E2.28260
G1 X144.911 Y143.120 E2.33928
G1 X144.770 Y142.230 E2.39616
G1 X144.911 Y141.342 E2.45291
G1 X145.320 Y140.545 E2.50952
G1 X145.952 Y139.913 E2.56591
G1 X146.750 Y139.506 E2.62250
G1 X147.608 Y139.371 E2.67734
G1 X148.501 Y139.497 E2.73430
G1 X149.318 Y139.911 E2.79212
G1 X149.952 Y140.545 E2.84871
G1 X150.361 Y141.342 E2.90532
G1 X150.502 Y142.230 E2.96207
G1 X150.358 Y143.139 E3.02018
G1 X149.931 Y143.939 E3.07745
G1 X149.371 Y144.499 E3.12747
G1 X148.788 Y143.820 F7800.000
G1 F1800
G1 X148.240 Y144.097 E3.16620
G1 X147.637 Y144.193 E3.20480
G1 X147.018 Y144.095 E3.24437
G1 X146.468 Y143.803 E3.28369
G1 X146.051 Y143.386 E3.32093
G1 X145.770 Y142.839 E3.35974
G1 X145.674 Y142.230 E3.39867
G1 X145.770 Y141.623 E3.43750
G1 X146.051 Y141.077 E3.47627
G1 X146.483 Y140.644 E3.51489
G1 X147.029 Y140.366 E3.55361
G1 X147.615 Y140.273 E3.59105
G1 X148.230 Y140.360 E3.63025
G1 X148.788 Y140.643 E3.66974
G1 X149.221 Y141.077 E3.70848
G1 X149.502 Y141.623 E3.74725
G1 X149.598 Y142.230 E3.78607
G1 X149.500 Y142.851 E3.82575
G1 X149.206 Y143.401 E3.86515
G1 X148.841 Y143.767 E3.89780
G1 X148.257 Y143.088 F7800.000
G1 F1800
G1 X147.962 Y143.237 E3.91869
G1 X147.636 Y143.289 E3.93951
G1 X147.304 Y143.237 E3.96073
G1 X147.004 Y143.078 E3.98217
G1 X146.781 Y142.854 E4.00213
G1 X146.630 Y142.559 E4.02307
G1 X146.578 Y142.231 E4.04405
G1 X146.630 Y141.904 E4.06496
G1 X146.781 Y141.609 E4.08589
G1 X147.014 Y141.375 E4.10673
G1 X147.309 Y141.226 E4.12759
G1 X147.622 Y141.176 E4.14764
G1 X147.958 Y141.224 E4.16906
G1 X148.257 Y141.375 E4.19022
G1 X148.491 Y141.609 E4.21111
G1 X148.642 Y141.904 E4.23204
G1 X148.694 Y142.231 E4.25294
G1 X148.642 Y142.563 E4.27420
G1 X148.481 Y142.864 E4.29573
G1 X148.310 Y143.035 E4.31100
G1 X148.257 Y143.088 F7800.000
G1 E2.31100 F2400.00000
G92 E0
G1 X157.406 Y148.175 F7800.000
G1 E2.00000 F2400.00000
G1 F1800
G1 X139.042 Y148.175 E3.15966
G1 X139.042 Y165.202 E4.23484
G1 X133.363 Y165.202 E4.59343
G1 X133.768 Y164.408 E4.64973
G1 X133.960 Y163.183 E4.72801
G1 X133.768 Y161.958 E4.80629
G1 X133.203 Y160.852 E4.88473
G1 X132.327 Y159.975 E4.96301
G1 X131.210 Y159.407 E5.04212
G1 X129.964 Y159.224 E5.12162
G1 X128.773 Y159.414 E5.19779
G1 X127.668 Y159.975 E5.27605
G1 X127.229 Y160.415 E5.31530
G1 X127.229 Y136.822 E6.80507
G1 X167.771 Y136.822 E9.36512
G1 X167.771 Y160.031 E10.83064
G1 X166.334 Y159.297 E10.93254
G1 X165.089 Y159.116 E11.01200
G1 X163.896 Y159.303 E11.08822
G1 X162.790 Y159.868 E11.16666
G1 X161.914 Y160.744 E11.24488
G1 X161.352 Y161.847 E11.32309
G1 X161.157 Y163.073 E11.40146
G1 X161.351 Y164.298 E11.47976
G1 X161.811 Y165.202 E11.54380
G1 X157.406 Y165.202 E11.82195
G1 X157.406 Y148.250 E12.89239
G1 X156.514 Y149.067 F7800.000
G1 F1800
G1 X139.934 Y149.067 E13.93931
G1 X139.934 Y166.094 E15.01449
G1 X131.363 Y166.094 E15.55573
G1 X132.473 Y164.981 E15.65498
G1 X132.908 Y164.129 E15.71546
G1 X133.057 Y163.183 E15.77589
G1 X132.908 Y162.237 E15.83633
G1 X132.472 Y161.384 E15.89687
G1 X131.795 Y160.707 E15.95731
G1 X130.935 Y160.269 E16.01825
G1 X129.969 Y160.127 E16.07989
G1 X129.052 Y160.273 E16.13854
G1 X128.200 Y160.707 E16.19895
G1 X127.523 Y161.384 E16.25939
G1 X127.087 Y162.236 E16.31984
G1 X126.937 Y163.183 E16.38038
G1 X127.087 Y164.130 E16.44091
G1 X127.522 Y164.981 E16.50130
G1 X128.632 Y166.094 E16.60054
G1 X126.336 Y166.094 E16.74552
G1 X126.336 Y135.930 E18.65028
G1 X168.664 Y135.930 E21.32307
G1 X168.664 Y162.966 E23.03028
G1 X168.170 Y163.005 E23.06154
G1 X168.031 Y162.127 E23.11767
G1 X167.597 Y161.275 E23.17804
G1 X166.920 Y160.599 E23.23843
G1 X166.059 Y160.159 E23.29948
G1 X165.094 Y160.019 E23.36110
G1 X164.175 Y160.163 E23.41980
G1 X163.322 Y160.599 E23.48034
G1 X162.645 Y161.275 E23.54073
G1 X162.211 Y162.127 E23.60110
G1 X162.061 Y163.073 E23.66160
G1 X162.211 Y164.019 E23.72205
G1 X162.644 Y164.871 E23.78242
G1 X163.322 Y165.550 E23.84298
G1 X163.585 Y165.684 E23.86162
G1 X163.486 Y166.094 E23.88830
G1 X156.514 Y166.094 E24.32859
G1 X156.514 Y149.142 E25.39903
G1 E23.39903 F2400.00000
G92 E0
G1 X168.170 Y163.141 F7800.000
G1 E2.00000 F2400.00000
G1 F1800
G1 X168.664 Y163.180 E2.03126
G1 X168.664 Y166.094 E2.21527
G1 X166.756 Y166.094 E2.33576
G1 X166.657 Y165.684 E2.36243
G1 X166.920 Y165.550 E2.38108
G1 X167.598 Y164.871 E2.44164
G1 X168.031 Y164.019 E2.50201
G1 X168.159 Y163.215 E2.55336
G1 E0.55336 F2400.00000
G92 E0
G1 X169.556 Y166.987 F7800.000
G1 E2.00000 F2400.00000
G1 F1800
G1 X125.444 Y166.987 E4.78554
G1 X125.444 Y135.037 E6.80304
G1 X169.556 Y135.037 E9.58857
G1 X169.556 Y166.912 E11.60134
G1 X169.067 Y166.883 F7800.000
G1 E9.60134 F2400.00000
G92 E0
G1 X167.936 Y165.648 F7800.000
G1 E2.00000 F2400.00000
G1 F1800
G1 X168.201 Y164.836 E2.01150
G1 E0.01150 F2400.00000
G92 E0
G1 X166.279 Y166.023 F7800.000
G1 E2.00000 F2400.00000
G1 F1800
G1 X165.189 Y166.109 E2.06595
G1 F1800
G1 X164.508 Y166.066 E2.10246
G1 F1800
G1 X163.963 Y166.023 E2.13543
G1 E0.13543 F2400.00000
G92 E0
G1 X168.201 Y161.311 F7800.000
G1 E2.00000 F2400.00000
G1 F1800
G1 X168.051 Y160.862 E2.00642
G1 X167.810 Y160.687 E2.01046
G1 F1800
G1 X167.569 Y160.512 E2.01342
G1 F1800
G1 X167.449 Y160.424 E2.01401
G1 X167.325 Y159.138 F7800.000
G1 F1800
G1 X166.951 Y159.019 E2.01795
G1 F1800
G1 X166.764 Y158.959 E2.01873
G1 X166.531 Y158.275 F7800.000
G1 F1800
G1 X167.226 Y157.580 E2.08170
G1 X167.226 Y156.298 E2.16390
G1 X164.935 Y158.589 E2.37161
G1 X164.736 Y158.560 E2.38447
G1 X163.486 Y158.756 E2.46566
G1 X167.226 Y155.016 E2.80479
G1 X167.226 Y153.734 E2.88699
G1 X157.952 Y163.008 E3.72791
G1 X157.952 Y161.726 E3.81010
G1 X167.226 Y152.452 E4.65102
G1 X167.226 Y151.171 E4.73322
G1 X157.952 Y160.444 E5.57414
G1 X157.952 Y159.162 E5.65634
