; generated by PrusaSlicer 2.5.0+MacOS-x64 on 2023-05-04 at 21:29:58 UTC


;
;

;
;
; 

; external perimeters extrusion width = 0.45mm
; perimeters extrusion width = 0.45mm
; infill extrusion width = 0.45mm
; solid infill extrusion width = 0.45mm
; top infill extrusion width = 0.40mm
; support material extrusion width = 0.35mm
; first layer extrusion width = 0.42mm

M73 P0 R91
M201 X2500 Y2500 Z400 E5000 ; sets maximum accelerations, mm/sec^2
M203 X180 Y180 Z12 E80 ; sets maximum feedrates, mm / sec
M204 P1250 R1250 T2500 ; sets acceleration (P, T) and retract acceleration (R), mm/sec^2
M205 X8.00 Y8.00 Z2.00 E10.00 ; sets the jerk limits, mm/sec
M205 S0 T0 ; sets the minimum extruding and travel feed rate, mm/sec
M107
;TYPE:Custom
M862.3 P "MINI" ; printer model check
G90 ; use absolute coordinates
M83 ; extruder relative mode
M104 S170 ; set extruder temp for bed leveling
M140 S60 ; set bed temp
M109 R170 ; wait for bed leveling temp
M190 S60 ; wait for bed temp
M204 T1250 ; set travel acceleration
G28 ; home all without mesh bed level
G29 ; mesh bed leveling 
M204 T2500 ; restore travel acceleration
M104 S215 ; set extruder temp
G92 E0
G1 Y-2 X179 F2400
G1 Z3 F720
M109 S215 ; wait for extruder temp

; intro line
G1 X170 F1000
G1 Z0.2 F720
G1 X110 E8 F900
G1 X40 E10 F700
G92 E0

M221 S95 ; set flow
G21 ; set units to millimeters
G90 ; use absolute coordinates
M83 ; use relative distances for extrusion
M900 K0.2 ; Filament gcode LA 1.5
; ; Filament gcode LA 1.0
M107
;LAYER_CHANGE
;Z:0.2
;HEIGHT:0.2
;BEFORE_LAYER_CHANGE
G92 E0.0
;0.2


G1 E-3.2 F4200
G1 Z.2 F720
;AFTER_LAYER_CHANGE
;0.2
G1 Z.4
G1 X53.679 Y52.968 F9000
G1 Z.2 F720
G1 E3.2 F2400
M204 P800
;TYPE:Skirt/Brim
;WIDTH:0.42
G1 F1200
G1 X69.276 Y42.492 E.58913
G1 X70.615 Y41.888 E.04606
M73 P0 R90
G1 X89.035 Y38.178 E.58912
G1 X90.503 Y38.132 E.04605
G1 X108.939 Y41.752 E.58908
G1 X110.313 Y42.272 E.04606
G1 X125.961 Y52.673 E.58913
G1 X127.032 Y53.679 E.04606
G1 X137.508 Y69.276 E.58913
G1 X138.112 Y70.615 E.04606
G1 X141.822 Y89.034 E.58909
G1 X141.868 Y90.502 E.04605
G1 X138.248 Y108.939 E.58911
G1 X137.728 Y110.313 E.04607
G1 X127.327 Y125.961 E.58913
G1 X126.321 Y127.032 E.04607
G1 X110.724 Y137.507 E.58911
G1 X109.385 Y138.111 E.04605
G1 X90.967 Y141.822 E.58909
G1 X89.498 Y141.868 E.04607
G1 X71.061 Y138.247 E.58912
G1 X69.687 Y137.727 E.04605
G1 X54.039 Y127.327 E.5891
G1 X52.968 Y126.321 E.04607
G1 X42.492 Y110.724 E.58913
G1 X41.888 Y109.385 E.04606
G1 X38.178 Y90.965 E.58912
G1 X38.132 Y89.497 E.04605
G1 X41.752 Y71.061 E.58908
G1 X42.272 Y69.687 E.04606
G1 X52.673 Y54.039 E.58913
G1 X53.638 Y53.012 E.04418
M204 P1000
G1 E-2.24 F4200
;WIPE_START
G1 F7200
G1 X55.003 Y52.094 E-.912
;WIPE_END
G1 E-.048 F4200
G1 Z.4 F720
G1 X55.26 Y55.145 F9000
G1 Z.2 F720
G1 E3.2 F2400
M204 P800
G1 F1200
G1 X70.519 Y44.87 E.57678
G1 X71.243 Y44.504 E.02544
G1 X89.414 Y40.818 E.58136
G1 X91.098 Y40.93 E.0529
G1 X108.141 Y44.313 E.54479
G1 X108.908 Y44.566 E.02533
G1 X124.24 Y54.731 E.57677
G1 X124.855 Y55.26 E.02546
G1 X135.13 Y70.519 E.57679
G1 X135.496 Y71.243 E.02545
G1 X139.15 Y89.272 E.57675
G1 X139.211 Y90.081 E.02545
G1 X135.688 Y108.136 E.57678
G1 X135.434 Y108.907 E.02546
G1 X125.269 Y124.24 E.57679
G1 X124.74 Y124.855 E.02546
G1 X109.481 Y135.13 E.57677
G1 X108.757 Y135.495 E.02545
G1 X90.729 Y139.15 E.57675
G1 X89.919 Y139.211 E.02546
G1 X71.864 Y135.687 E.57679
G1 X71.093 Y135.433 E.02545
G1 X55.76 Y125.27 E.57677
G1 X55.145 Y124.74 E.02546
G1 X44.87 Y109.481 E.57679
G1 X44.504 Y108.757 E.02546
G1 X40.85 Y90.727 E.57678
G1 X40.789 Y89.918 E.02545
G1 X44.312 Y71.864 E.57675
G1 X44.566 Y71.093 E.02546
G1 X54.731 Y55.76 E.57679
G1 X55.221 Y55.19 E.02357
M204 P1000
G1 X55.506 Y55.437 F9000
M204 P800
G1 F1200
G1 X70.719 Y45.189 E.57511
G1 X71.39 Y44.852 E.02353
G1 X89.464 Y41.193 E.5782
G1 X91.059 Y41.305 E.05014
G1 X108.056 Y44.681 E.54332
G1 X108.765 Y44.916 E.02344
G1 X124.021 Y55.038 E.57405
G1 X124.59 Y55.529 E.02355
G1 X134.811 Y70.719 E.57406
G1 X135.148 Y71.39 E.02355
G1 X138.778 Y89.334 E.57403
G1 X138.833 Y90.083 E.02354
G1 X135.32 Y108.052 E.57405
G1 X135.084 Y108.765 E.02355
M73 P1 R90
G1 X124.962 Y124.021 E.57407
G1 X124.471 Y124.59 E.02355
G1 X109.281 Y134.81 E.57405
G1 X108.61 Y135.147 E.02354
G1 X90.666 Y138.778 E.57403
G1 X89.917 Y138.833 E.02355
G1 X71.948 Y135.319 E.57406
G1 X71.235 Y135.083 E.02354
G1 X55.979 Y124.962 E.57404
G1 X55.411 Y124.471 E.02355
G1 X45.189 Y109.281 E.57407
G1 X44.852 Y108.61 E.02355
G1 X41.222 Y90.665 E.57406
G1 X41.167 Y89.916 E.02354
G1 X44.68 Y71.948 E.57402
G1 X44.916 Y71.235 E.02355
G1 X55.038 Y55.979 E.57406
G1 X55.467 Y55.482 E.02058
M204 P1000
G1 X55.752 Y55.729 F9000
M204 P800
G1 F1200
G1 X55.797 Y55.676 E.00218
G1 X70.919 Y45.509 E.57135
G1 X71.536 Y45.201 E.02162
G1 X89.513 Y41.567 E.57505
G1 X91.019 Y41.68 E.04736
G1 X107.97 Y45.048 E.54188
G1 X108.622 Y45.266 E.02154
G1 X123.802 Y55.345 E.57134
G1 X124.324 Y55.797 E.02163
G1 X134.491 Y70.919 E.57135
G1 X134.8 Y71.536 E.02163
G1 X138.406 Y89.397 E.57131
G1 X138.455 Y90.085 E.02162
G1 X134.952 Y107.967 E.57134
G1 X134.734 Y108.622 E.02163
G1 X124.655 Y123.802 E.57135
G1 X124.203 Y124.324 E.02163
G1 X109.081 Y134.49 E.57133
G1 X108.464 Y134.799 E.02162
G1 X90.603 Y138.406 E.57131
G1 X89.915 Y138.455 E.02163
G1 X72.033 Y134.951 E.57135
G1 X71.378 Y134.733 E.02162
G1 X56.198 Y124.655 E.57133
G1 X55.677 Y124.203 E.02163
G1 X45.509 Y109.081 E.57135
G1 X45.2 Y108.464 E.02163
G1 X41.594 Y90.602 E.57134
G1 X41.545 Y89.914 E.02162
M73 P1 R89
G1 X45.048 Y72.033 E.57131
G1 X45.266 Y71.378 E.02163
G1 X55.345 Y56.198 E.57135
G1 X55.712 Y55.774 E.01757
M204 P1000
G1 X55.997 Y56.022 F9000
M204 P800
G1 F1200
G1 X56.065 Y55.943 E.00327
G1 X71.119 Y45.829 E.56864
G1 X71.681 Y45.549 E.01969
G1 X89.561 Y41.942 E.5719
G1 X90.978 Y42.055 E.04456
G1 X107.885 Y45.416 E.54048
G1 X108.478 Y45.615 E.01963
G1 X123.583 Y55.653 E.56863
G1 X124.057 Y56.065 E.0197
G1 X134.171 Y71.119 E.56864
G1 X134.451 Y71.682 E.0197
G1 X138.034 Y89.459 E.56861
G1 X138.077 Y90.086 E.0197
G1 X134.585 Y107.882 E.56863
G1 X134.385 Y108.478 E.0197
G1 X124.347 Y123.583 E.56865
G1 X123.935 Y124.057 E.0197
G1 X108.881 Y134.17 E.56863
G1 X108.318 Y134.45 E.01969
G1 X90.541 Y138.034 E.56861
G1 X89.914 Y138.077 E.0197
G1 X72.118 Y134.584 E.56864
G1 X71.522 Y134.384 E.0197
G1 X56.417 Y124.348 E.56862
G1 X55.943 Y123.935 E.0197
G1 X45.829 Y108.881 E.56865
G1 X45.549 Y108.318 E.0197
G1 X41.966 Y90.54 E.56864
G1 X41.923 Y89.913 E.0197
G1 X45.415 Y72.118 E.5686
G1 X45.615 Y71.522 E.0197
G1 X55.653 Y56.417 E.56864
G1 X55.957 Y56.067 E.01455
M204 P1000
G1 X56.241 Y56.315 F9000
M204 P800
G1 F1200
G1 X56.333 Y56.21 E.00438
G1 X71.319 Y46.149 E.56595
G1 X71.826 Y45.898 E.01775
G1 X89.609 Y42.317 E.56875
G1 X90.935 Y42.43 E.04173
G1 X107.799 Y45.783 E.53911
G1 X108.334 Y45.964 E.01771
G1 X123.364 Y55.96 E.56594
G1 X123.79 Y56.333 E.01776
G1 X133.851 Y71.319 E.56595
G1 X134.102 Y71.827 E.01776
G1 X137.661 Y89.521 E.56591
G1 X137.699 Y90.086 E.01776
G1 X134.217 Y107.797 E.56594
G1 X134.036 Y108.334 E.01776
G1 X124.04 Y123.364 E.56595
G1 X123.667 Y123.79 E.01776
G1 X108.681 Y133.85 E.56594
G1 X108.173 Y134.101 E.01775
G1 X90.479 Y137.661 E.56592
G1 X89.914 Y137.699 E.01776
G1 X72.203 Y134.216 E.56595
G1 X71.666 Y134.035 E.01775
G1 X56.636 Y124.041 E.56593
G1 X56.21 Y123.668 E.01776
G1 X46.149 Y108.681 E.56595
G1 X45.898 Y108.173 E.01776
G1 X42.339 Y90.478 E.56594
G1 X42.301 Y89.913 E.01776
G1 X45.783 Y72.203 E.56591
G1 X45.964 Y71.666 E.01776
G1 X55.96 Y56.636 E.56595
G1 X56.201 Y56.36 E.0115
M204 P1000
G1 X56.484 Y56.609 F9000
M204 P800
G1 F1200
G1 X56.599 Y56.478 E.00548
G1 X71.518 Y46.469 E.56327
G1 X71.97 Y46.247 E.0158
G1 X89.656 Y42.692 E.56561
G1 X90.89 Y42.805 E.03887
M73 P2 R89
G1 X107.713 Y46.151 E.53779
G1 X108.189 Y46.313 E.01577
G1 X123.144 Y56.266 E.56327
G1 X123.522 Y56.599 E.0158
G1 X133.531 Y71.518 E.56327
G1 X133.753 Y71.971 E.0158
G1 X137.289 Y89.583 E.56324
G1 X137.321 Y90.086 E.0158
G1 X133.85 Y107.711 E.56326
G1 X133.687 Y108.188 E.0158
G1 X123.734 Y123.144 E.56328
G1 X123.401 Y123.523 E.01581
G1 X108.482 Y133.53 E.56326
G1 X108.029 Y133.752 E.0158
G1 X90.418 Y137.289 E.56324
G1 X89.914 Y137.321 E.01581
G1 X72.288 Y133.849 E.56327
G1 X71.812 Y133.686 E.0158
G1 X56.856 Y123.734 E.56325
G1 X56.478 Y123.401 E.01581
G1 X46.469 Y108.482 E.56328
G1 X46.247 Y108.029 E.0158
G1 X42.711 Y90.416 E.56327
G1 X42.679 Y89.913 E.0158
G1 X46.15 Y72.289 E.56324
G1 X46.313 Y71.812 E.0158
G1 X56.266 Y56.856 E.56327
G1 X56.444 Y56.654 E.00844
M204 P1000
G1 X56.726 Y56.903 F9000
M204 P800
G1 F1200
G1 X56.865 Y56.746 E.0066
G1 X71.717 Y46.79 E.56061
G1 X72.113 Y46.597 E.01382
G1 X89.702 Y43.068 E.56247
G1 X90.844 Y43.179 E.03597
G1 X107.626 Y46.518 E.53652
G1 X108.042 Y46.662 E.01381
G1 X122.924 Y56.573 E.56061
G1 X123.254 Y56.865 E.01383
G1 X133.21 Y71.717 E.56061
G1 X133.403 Y72.114 E.01383
G1 X136.917 Y89.644 E.56058
G1 X136.944 Y90.084 E.01383
G1 X133.482 Y107.625 E.5606
G1 X133.338 Y108.042 E.01383
G1 X123.427 Y122.924 E.56061
G1 X123.135 Y123.254 E.01383
G1 X108.283 Y133.209 E.5606
G1 X107.886 Y133.402 E.01383
G1 X90.356 Y136.917 E.56058
G1 X89.916 Y136.944 E.01383
G1 X72.375 Y133.481 E.56061
G1 X71.958 Y133.337 E.01383
G1 X57.076 Y123.427 E.56059
G1 X56.746 Y123.135 E.01383
G1 X46.79 Y108.283 E.56061
G1 X46.597 Y107.886 E.01383
G1 X43.083 Y90.355 E.56061
G1 X43.056 Y89.915 E.01383
G1 X46.518 Y72.375 E.56058
G1 X46.662 Y71.958 E.01383
M73 P2 R88
G1 X56.573 Y57.076 E.56061
G1 X56.686 Y56.948 E.00535
M204 P1000
G1 X56.966 Y57.199 F9000
M204 P800
G1 F1200
G1 X57.13 Y57.015 E.00772
G1 X71.915 Y47.111 E.55797
G1 X72.255 Y46.947 E.01183
G1 X89.747 Y43.443 E.55934
G1 X90.795 Y43.553 E.03304
G1 X107.539 Y46.885 E.5353
G1 X107.895 Y47.01 E.01182
G1 X122.703 Y56.879 E.55797
G1 X122.985 Y57.13 E.01184
G1 X132.889 Y71.915 E.55797
G1 X133.053 Y72.256 E.01184
G1 X136.544 Y89.704 E.55794
G1 X136.566 Y90.081 E.01183
G1 X133.115 Y107.539 E.55797
G1 X132.991 Y107.895 E.01184
G1 X123.121 Y122.703 E.55797
G1 X122.87 Y122.985 E.01184
G1 X108.084 Y132.888 E.55796
G1 X107.744 Y133.052 E.01183
G1 X90.296 Y136.544 E.55794
G1 X89.919 Y136.566 E.01184
G1 X72.461 Y133.114 E.55797
G1 X72.105 Y132.99 E.01183
G1 X57.297 Y123.121 E.55795
G1 X57.015 Y122.87 E.01184
G1 X47.111 Y108.085 E.55797
G1 X46.947 Y107.744 E.01184
G1 X43.456 Y90.295 E.55797
G1 X43.434 Y89.918 E.01183
G1 X46.885 Y72.461 E.55794
G1 X47.01 Y72.105 E.01184
G1 X56.926 Y57.243 E.56018
M204 P1000
G1 X57.205 Y57.495 F9000
M204 P800
G1 F1200
G1 X57.394 Y57.285 E.00886
G1 X72.113 Y47.432 E.55536
G1 X72.396 Y47.298 E.00981
G1 X89.792 Y43.819 E.55623
G1 X90.744 Y43.927 E.03005
G1 X107.452 Y47.252 E.53414
G1 X107.747 Y47.357 E.00981
G1 X122.482 Y57.185 E.55536
G1 X122.715 Y57.394 E.00982
G1 X132.568 Y72.113 E.55536
G1 X132.702 Y72.396 E.00982
G1 X136.172 Y89.764 E.55532
G1 X136.188 Y90.077 E.00981
G1 X132.748 Y107.452 E.55535
G1 X132.643 Y107.747 E.00982
G1 X122.815 Y122.482 E.55536
G1 X122.606 Y122.715 E.00982
G1 X107.887 Y132.567 E.55534
G1 X107.604 Y132.701 E.00981
G1 X90.236 Y136.172 E.55533
G1 X89.923 Y136.188 E.00982
G1 X72.548 Y132.747 E.55536
G1 X72.253 Y132.642 E.00981
G1 X57.518 Y122.815 E.55534
G1 X57.285 Y122.606 E.00982
G1 X47.432 Y107.887 E.55536
G1 X47.298 Y107.604 E.00982
M73 P3 R88
G1 X43.828 Y90.235 E.55535
G1 X43.812 Y89.922 E.00981
G1 X47.252 Y72.548 E.55532
G1 X47.357 Y72.253 E.00982
G1 X57.168 Y57.542 E.55444
M204 P1000
G1 X57.482 Y57.751 F9000
M204 P800
G1 F1200
G1 X57.657 Y57.556 E.00821
G1 X72.311 Y47.754 E.55278
G1 X72.535 Y47.649 E.00776
G1 X89.835 Y44.195 E.55315
G1 X90.69 Y44.3 E.02702
G1 X107.364 Y47.619 E.53304
G1 X107.596 Y47.703 E.00776
G1 X122.261 Y57.49 E.55278
G1 X122.444 Y57.657 E.00776
G1 X132.246 Y72.311 E.55278
G1 X132.351 Y72.535 E.00776
G1 X135.799 Y89.823 E.55274
G1 X135.81 Y90.071 E.00776
G1 X132.381 Y107.364 E.55277
G1 X132.297 Y107.596 E.00776
G1 X122.51 Y122.261 E.55278
G1 X122.343 Y122.444 E.00776
G1 X107.689 Y132.245 E.55276
G1 X107.465 Y132.35 E.00776
G1 X90.177 Y135.799 E.55275
G1 X89.929 Y135.81 E.00776
G1 X72.636 Y132.38 E.55278
G1 X72.404 Y132.296 E.00776
G1 X57.739 Y122.51 E.55276
G1 X57.556 Y122.343 E.00776
G1 X47.754 Y107.689 E.55278
G1 X47.649 Y107.465 E.00776
G1 X44.201 Y90.176 E.55277
G1 X44.19 Y89.928 E.00776
G1 X47.619 Y72.636 E.55274
G1 X47.703 Y72.404 E.00776
G1 X57.449 Y57.801 E.55044
M204 P1000
G1 X57.762 Y58.011 F9000
M204 P800
G1 F1200
G1 X57.918 Y57.83 E.00748
G1 X72.507 Y48.076 E.55025
G1 X72.671 Y48.001 E.00566
G1 X89.877 Y44.571 E.5501
G1 X90.633 Y44.672 E.02392
G1 X107.275 Y47.986 E.53202
G1 X107.444 Y48.049 E.00566
G1 X122.038 Y57.795 E.55025
G1 X122.17 Y57.918 E.00566
G1 X131.924 Y72.507 E.55025
G1 X131.999 Y72.671 E.00566
G1 X135.426 Y89.881 E.55021
G1 X135.433 Y90.062 E.00566
G1 X132.014 Y107.275 E.55024
G1 X131.951 Y107.444 E.00566
G1 X122.205 Y122.038 E.55025
G1 X122.082 Y122.17 E.00566
G1 X107.493 Y131.923 E.55023
G1 X107.329 Y131.998 E.00566
G1 X90.119 Y135.426 E.55022
G1 X89.938 Y135.433 E.00566
G1 X72.725 Y132.013 E.55025
G1 X72.556 Y131.95 E.00566
G1 X57.962 Y122.205 E.55023
G1 X57.83 Y122.082 E.00566
G1 X48.076 Y107.493 E.55025
G1 X48.001 Y107.329 E.00566
G1 X44.574 Y90.118 E.55024
G1 X44.567 Y89.937 E.00566
G1 X47.986 Y72.725 E.55021
G1 X48.049 Y72.556 E.00566
G1 X57.729 Y58.061 E.54653
M204 P1000
G1 X58.042 Y58.27 F9000
M204 P800
G1 F1200
G1 X58.175 Y58.105 E.00663
G1 X72.702 Y48.399 E.54779
G1 X72.804 Y48.355 E.00348
G1 X89.917 Y44.947 E.54712
G1 X90.572 Y45.045 E.02075
M73 P3 R87
G1 X107.184 Y48.352 E.53108
G1 X107.288 Y48.392 E.00348
G1 X121.814 Y58.099 E.54779
G1 X121.895 Y58.175 E.00348
G1 X131.601 Y72.702 E.54779
G1 X131.646 Y72.804 E.00348
G1 X135.053 Y89.938 E.54775
G1 X135.056 Y90.049 E.00348
G1 X131.648 Y107.184 E.54778
G1 X131.608 Y107.288 E.00348
G1 X121.901 Y121.814 E.54779
G1 X121.825 Y121.895 E.00348
G1 X107.298 Y131.6 E.54777
G1 X107.196 Y131.645 E.00348
G1 X90.062 Y135.053 E.54776
G1 X89.951 Y135.056 E.00348
G1 X72.816 Y131.647 E.54779
G1 X72.712 Y131.607 E.00348
G1 X58.186 Y121.901 E.54777
G1 X58.105 Y121.825 E.00348
G1 X48.399 Y107.298 E.54779
G1 X48.354 Y107.196 E.00348
G1 X44.947 Y90.061 E.54778
G1 X44.944 Y89.95 E.00348
G1 X48.352 Y72.816 E.54775
G1 X48.392 Y72.712 E.00348
G1 X58.009 Y58.32 E.54274
M204 P1000
G1 X58.323 Y58.529 F9000
M204 P800
G1 F1200
G1 X58.427 Y58.387 E.00554
G1 X72.894 Y48.725 E.54547
G1 X89.956 Y45.324 E.54548
G1 X90.505 Y45.416 E.01747
G1 X107.09 Y48.718 E.5302
G1 X121.587 Y58.401 E.54661
G1 X131.275 Y72.894 E.54661
G1 X134.679 Y89.991 E.54658
G1 X131.282 Y107.09 E.54661
G1 X121.599 Y121.587 E.54661
G1 X107.106 Y131.274 E.5466
G1 X90.009 Y134.679 E.54658
G1 X72.91 Y131.281 E.54661
G1 X58.413 Y121.599 E.5466
M73 P4 R87
G1 X48.725 Y107.106 E.54661
G1 X45.321 Y90.008 E.54661
G1 X48.718 Y72.91 E.54658
G1 X58.289 Y58.579 E.54033
M204 P1000
; printing object bottom.stl id:0 copy 0
G1 E-2.24 F4200
;WIPE_START
G1 F7200
G1 X58.427 Y58.387 E-.13123
G1 X59.598 Y57.604 E-.78077
;WIPE_END
G1 E-.048 F4200
G1 Z.4 F720
G1 X90.094 Y79.418 F9000
G1 Z.2 F720
G1 E3.2 F2400
M204 P800
;TYPE:Support material
G1 F1200
G1 X90.767 Y79.453 E.02113
G1 X91.07 Y79.489 E.00957
G1 X91.564 Y79.552 E.0156
G1 X92.015 Y79.644 E.01445
G1 X92.74 Y79.812 E.02331
G1 X94.265 Y80.371 E.05095
G1 X95.408 Y80.974 E.04053
G1 X96.303 Y81.586 E.03396
G1 X96.599 Y81.82 E.01185
G1 X97.676 Y82.834 E.04635
G1 X98.559 Y83.938 E.04434
G1 X99.224 Y85.004 E.03941
G1 X99.513 Y85.611 E.02107
G1 X99.925 Y86.613 E.03397
G1 X100.214 Y87.616 E.03273
G1 X100.396 Y88.658 E.03318
G1 X100.445 Y89.023 E.01153
G1 X100.49 Y90.42 E.04382
G1 X100.387 Y91.56 E.03591
G1 X100.224 Y92.395 E.02666
G1 X100.005 Y93.245 E.02752
G1 X99.679 Y94.134 E.02968
G1 X99.437 Y94.673 E.01853
G1 X98.621 Y96.067 E.05066
G1 X98.463 Y96.28 E.00831
G1 X97.831 Y97.089 E.03217
G1 X96.972 Y97.955 E.03826
G1 X96.507 Y98.349 E.01912
G1 X95.782 Y98.883 E.02822
G1 X94.858 Y99.437 E.03377
G1 X93.863 Y99.896 E.03436
G1 X92.99 Y100.207 E.02907
G1 X92.036 Y100.456 E.0309
G1 X91.764 Y100.51 E.00871
G1 X90.973 Y100.609 E.02499
