; generated by Slic3r 1.3.0 on 2023-01-27 at 14:39:57

; external perimeters extrusion width = 0.55mm (4.37mm^3/s)
; perimeters extrusion width = 0.70mm (11.44mm^3/s)
; infill extrusion width = 0.62mm (13.45mm^3/s)
; solid infill extrusion width = 0.70mm (3.81mm^3/s)
; top infill extrusion width = 0.70mm (2.86mm^3/s)

M107
M104 S200 ; set temperature
G28 ; home all axes
G1 Z5 F5000 ; lift nozzle

; Filament gcode

M109 S200 ; set temperature and wait for it to be reached
G21 ; set units to millimeters
G90 ; use absolute coordinates
M82 ; use absolute distances for extrusion
G92 E0
G1 Z0.350 F7800.000
G1 E-2.00000 F2400.00000
G92 E0
G1 X0.713 Y28.712 F7800.000
G1 E2.00000 F2400.00000
G1 F1800
G1 X32.052 Y-2.601 E3.37079
G1 X33.931 Y-3.917 E3.44175
G1 X36.735 Y-4.540 E3.53062
G1 X82.265 Y-4.540 E4.93938
G1 X84.524 Y-4.143 E5.01034
G1 X86.948 Y-2.601 E5.09922
G1 X119.278 Y29.706 E6.51344
G1 X200.278 Y115.548 E10.16528
G1 X201.540 Y117.464 E10.23624
G1 X202.085 Y120.095 E10.31938
G1 X202.085 Y165.681 E11.72987
G1 X201.688 Y167.940 E11.80084
G1 X200.146 Y170.364 E11.88975
G1 X167.928 Y202.598 E13.29988
G1 X166.050 Y203.915 E13.37084
G1 X163.242 Y204.540 E13.45985
G1 X117.678 Y204.540 E14.86966
G1 X115.419 Y204.143 E14.94062
G1 X112.992 Y202.598 E15.02963
G1 X80.637 Y170.223 E16.44587
G1 X-0.283 Y84.288 E20.09811
G1 X-1.543 Y82.371 E20.16907
G1 X-2.085 Y79.746 E20.25201
G1 X-2.085 Y34.253 E21.65962
G1 X-1.688 Y31.994 E21.73058
G1 X-0.143 Y29.567 E21.81962
G1 X0.659 Y28.765 E21.85470
G1 E19.85470 F2400.00000
G92 E0
G1 X129.988 Y133.700 F7800.000
G1 E2.00000 F2400.00000
G1 F1800
G1 X131.054 Y132.604 E2.04730
G1 X132.088 Y131.737 E2.08905
G1 X133.199 Y130.979 E2.13068
G1 X134.378 Y130.334 E2.17224
G1 X135.615 Y129.805 E2.21387
G1 X136.899 Y129.403 E2.25549
G1 X138.218 Y129.126 E2.29721
G1 X139.607 Y128.982 E2.34043
G1 X141.079 Y128.961 E2.38596
G1 X142.421 Y129.080 E2.42766
G1 X143.743 Y129.330 E2.46928
G1 X145.035 Y129.708 E2.51092
G1 X146.282 Y130.212 E2.55255
G1 X147.473 Y130.833 E2.59410
G1 X148.599 Y131.569 E2.63574
G1 X149.645 Y132.412 E2.67730
G1 X150.740 Y133.478 E2.72459
G1 X151.606 Y134.513 E2.76634
G1 X152.364 Y135.625 E2.80797
G1 X153.009 Y136.804 E2.84955
G1 X153.537 Y138.042 E2.89119
G1 X153.939 Y139.325 E2.93279
G1 X154.215 Y140.642 E2.97444
G1 X154.360 Y141.978 E3.01600
G1 X154.381 Y143.507 E3.06332
G1 X154.262 Y144.850 E3.10506
G1 X154.012 Y146.172 E3.14667
G1 X153.634 Y147.464 E3.18832
G1 X153.132 Y148.712 E3.22997
G1 X152.510 Y149.904 E3.27155
G1 X151.774 Y151.029 E3.31315
G1 X150.932 Y152.076 E3.35472
G1 X149.866 Y153.172 E3.40203
G1 X148.832 Y154.039 E3.44378
G1 X147.721 Y154.797 E3.48540
G1 X146.542 Y155.442 E3.52697
G1 X145.305 Y155.971 E3.56859
G1 X144.021 Y156.373 E3.61022
G1 X142.705 Y156.649 E3.65183
G1 X141.370 Y156.794 E3.69337
G1 X139.841 Y156.815 E3.74069
G1 X138.499 Y156.696 E3.78240
G1 X137.177 Y156.446 E3.82401
G1 X135.885 Y156.068 E3.86565
G1 X134.638 Y155.564 E3.90727
G1 X133.446 Y154.943 E3.94886
G1 X132.321 Y154.207 E3.99046
G1 X131.275 Y153.365 E4.03201
G1 X130.180 Y152.297 E4.07934
G1 X129.314 Y151.263 E4.12107
G1 X128.556 Y150.151 E4.16271
G1 X127.911 Y148.972 E4.20429
G1 X127.383 Y147.734 E4.24593
G1 X126.981 Y146.451 E4.28753
G1 X126.705 Y145.134 E4.32918
G1 X126.560 Y143.798 E4.37074
G1 X126.539 Y142.269 E4.41806
G1 X126.658 Y140.926 E4.45979
G1 X126.908 Y139.604 E4.50140
G1 X127.286 Y138.312 E4.54306
G1 X127.788 Y137.065 E4.58466
G1 X128.410 Y135.871 E4.62630
G1 X129.146 Y134.747 E4.66790
G1 X129.941 Y133.758 E4.70714
G1 X130.456 Y134.114 F7800.000
G1 F1800
G1 X131.480 Y133.063 E4.75255
G1 X132.466 Y132.236 E4.79236
G1 X133.526 Y131.513 E4.83207
G1 X134.651 Y130.897 E4.87176
G1 X135.832 Y130.392 E4.91148
G1 X137.057 Y130.009 E4.95119
G1 X138.315 Y129.745 E4.99098
G1 X139.644 Y129.606 E5.03233
G1 X141.055 Y129.587 E5.07600
G1 X142.336 Y129.700 E5.11577
G1 X143.597 Y129.938 E5.15548
G1 X144.829 Y130.299 E5.19521
G1 X146.020 Y130.780 E5.23494
G1 X147.156 Y131.373 E5.27461
G1 X148.231 Y132.076 E5.31433
G1 X149.230 Y132.881 E5.35404
G1 X150.282 Y133.904 E5.39943
G1 X151.107 Y134.890 E5.43923
G1 X151.830 Y135.951 E5.47897
G1 X152.446 Y137.077 E5.51866
G1 X152.950 Y138.258 E5.55840
G1 X153.333 Y139.483 E5.59810
G1 X153.597 Y140.740 E5.63785
G1 X153.735 Y142.016 E5.67755
G1 X153.755 Y143.483 E5.72297
G1 X153.642 Y144.765 E5.76277
G1 X153.404 Y146.026 E5.80247
G1 X153.043 Y147.259 E5.84222
G1 X152.563 Y148.451 E5.88198
G1 X151.970 Y149.587 E5.92166
G1 X151.268 Y150.662 E5.96136
G1 X150.464 Y151.662 E6.00107
G1 X149.440 Y152.713 E6.04648
G1 X148.454 Y153.540 E6.08629
G1 X147.394 Y154.263 E6.12601
G1 X146.269 Y154.879 E6.16569
G1 X145.088 Y155.384 E6.20541
G1 X143.863 Y155.767 E6.24513
G1 X142.607 Y156.031 E6.28485
G1 X141.332 Y156.169 E6.32452
G1 X139.865 Y156.189 E6.36994
G1 X138.584 Y156.076 E6.40971
G1 X137.323 Y155.838 E6.44942
G1 X136.091 Y155.477 E6.48915
G1 X134.900 Y154.996 E6.52888
G1 X133.762 Y154.403 E6.56858
G1 X132.689 Y153.701 E6.60827
G1 X131.690 Y152.897 E6.64796
G1 X130.638 Y151.872 E6.69339
G1 X129.813 Y150.886 E6.73318
G1 X129.090 Y149.825 E6.77291
G1 X128.474 Y148.699 E6.81260
G1 X127.970 Y147.518 E6.85234
G1 X127.587 Y146.293 E6.89204
G1 X127.323 Y145.036 E6.93179
G1 X127.185 Y143.760 E6.97149
G1 X127.165 Y142.293 E7.01691
G1 X127.278 Y141.011 E7.05671
G1 X127.516 Y139.750 E7.09642
G1 X127.877 Y138.517 E7.13617
G1 X128.356 Y137.327 E7.17588
G1 X128.950 Y136.188 E7.21562
G1 X129.652 Y135.114 E7.25531
G1 X130.409 Y134.173 E7.29269
G1 X130.925 Y134.529 F7800.000
G1 F1800
G1 X131.906 Y133.521 E7.33620
G1 X132.843 Y132.735 E7.37408
G1 X133.853 Y132.046 E7.41189
G1 X134.925 Y131.460 E7.44969
G1 X136.049 Y130.979 E7.48750
G1 X137.215 Y130.614 E7.52531
G1 X138.412 Y130.363 E7.56316
G1 X139.681 Y130.231 E7.60264
G1 X141.032 Y130.212 E7.64445
G1 X142.250 Y130.320 E7.68229
G1 X143.451 Y130.546 E7.72010
G1 X144.624 Y130.890 E7.75792
G1 X145.758 Y131.348 E7.79576
G1 X146.840 Y131.913 E7.83353
G1 X147.863 Y132.582 E7.87135
G1 X148.815 Y133.349 E7.90918
G1 X149.823 Y134.330 E7.95269
G1 X150.608 Y135.268 E7.99055
G1 X151.297 Y136.278 E8.02838
G1 X151.883 Y137.350 E8.06619
G1 X152.363 Y138.475 E8.10402
G1 X152.728 Y139.641 E8.14182
G1 X152.979 Y140.838 E8.17968
G1 X153.111 Y142.054 E8.21751
G1 X153.130 Y143.460 E8.26103
G1 X153.022 Y144.679 E8.29889
G1 X152.796 Y145.880 E8.33670
G1 X152.452 Y147.054 E8.37455
G1 X151.995 Y148.189 E8.41240
G1 X151.430 Y149.271 E8.45018
G1 X150.762 Y150.294 E8.48799
G1 X149.995 Y151.247 E8.52584
G1 X149.014 Y152.255 E8.56935
G1 X148.077 Y153.041 E8.60722
G1 X147.067 Y153.730 E8.64503
G1 X145.995 Y154.316 E8.68283
G1 X144.871 Y154.797 E8.72065
G1 X143.705 Y155.162 E8.75845
G1 X142.509 Y155.413 E8.79628
G1 X141.294 Y155.545 E8.83408
G1 X139.888 Y155.564 E8.87760
G1 X138.670 Y155.456 E8.91543
G1 X137.469 Y155.230 E8.95324
G1 X136.296 Y154.886 E8.99107
G1 X135.162 Y154.428 E9.02890
G1 X134.079 Y153.863 E9.06671
G1 X133.057 Y153.194 E9.10450
G1 X132.105 Y152.428 E9.14231
G1 X131.097 Y151.446 E9.18585
G1 X130.312 Y150.508 E9.22370
G1 X129.623 Y149.498 E9.26153
G1 X129.037 Y148.426 E9.29934
G1 X128.557 Y147.301 E9.33717
G1 X128.192 Y146.135 E9.37497
G1 X127.941 Y144.938 E9.41283
G1 X127.809 Y143.722 E9.45066
G1 X127.790 Y142.316 E9.49418
G1 X127.898 Y141.097 E9.53204
G1 X128.124 Y139.896 E9.56985
G1 X128.468 Y138.722 E9.60770
G1 X128.925 Y137.588 E9.64552
G1 X129.490 Y136.504 E9.68336
G1 X130.158 Y135.482 E9.72115
G1 X130.878 Y134.587 E9.75667
G1 X130.925 Y134.529 F7800.000
G1 E7.75667 F2400.00000
G92 E0
G1 X102.096 Y105.714 F7800.000
G1 E2.00000 F2400.00000
G1 F1800
G1 X118.341 Y89.461 E2.71103
G1 X162.579 Y89.461 E4.07982
G1 X193.860 Y120.757 E5.44895
G1 X193.860 Y165.019 E6.81845
G1 X162.579 Y196.315 E8.18757
G1 X118.341 Y196.315 E9.55636
G1 X87.060 Y165.019 E10.92549
G1 X87.060 Y120.757 E12.29499
G1 X102.043 Y105.767 E12.95076
G1 X101.654 Y105.272 F7800.000
G1 F1800
G1 X118.082 Y88.836 E13.66980
G1 X162.838 Y88.836 E15.05462
G1 X194.485 Y120.499 E16.43976
G1 X194.485 Y165.277 E17.82527
G1 X162.838 Y196.940 E19.21042
G1 X118.082 Y196.940 E20.59523
G1 X86.435 Y165.277 E21.98037
G1 X86.435 Y120.499 E23.36588
G1 X101.601 Y105.325 E24.02967
G1 X101.212 Y104.831 F7800.000
G1 F1800
G1 X117.823 Y88.211 E24.75672
G1 X163.097 Y88.211 E26.15755
G1 X195.110 Y120.240 E27.55872
G1 X195.110 Y165.536 E28.96024
G1 X163.097 Y197.565 E30.36140
G1 X117.823 Y197.565 E31.76224
G1 X85.810 Y165.536 E33.16340
G1 X85.810 Y120.240 E34.56492
G1 X101.159 Y104.884 E35.23671
G1 X101.710 Y104.872 F7800.000
G1 E33.23671 F2400.00000
G92 E0
G1 X118.843 Y89.843 F7800.000
G1 E2.00000 F2400.00000
G1 F1800
G1 X87.442 Y121.259 E3.38233
G1 X87.442 Y122.133 E3.40952
G1 X119.732 Y89.843 E4.83064
G1 X120.621 Y89.843 E4.85830
G1 X87.442 Y123.022 E6.31854
G1 X87.442 Y123.911 E6.34620
G1 X121.510 Y89.843 E7.84556
G1 X122.398 Y89.843 E7.87322
G1 X87.442 Y124.799 E9.41169
G1 X87.442 Y125.688 E9.43935
G1 X123.287 Y89.843 E11.01694
G1 X124.176 Y89.843 E11.04460
G1 X87.442 Y126.577 E12.66131
G1 X87.442 Y127.466 E12.68897
G1 X125.065 Y89.843 E14.34480
G1 X125.954 Y89.843 E14.37246
G1 X87.442 Y128.355 E16.06741
G1 X87.442 Y129.244 E16.09507
G1 X126.843 Y89.843 E17.82914
G1 X127.731 Y89.843 E17.85680
G1 X87.442 Y130.132 E19.62998
G1 X87.442 Y131.021 E19.65764
G1 X128.620 Y89.843 E21.46994
G1 X129.509 Y89.843 E21.49760
G1 X87.442 Y131.910 E23.34902
G1 X87.442 Y132.799 E23.37669
G1 X130.398 Y89.843 E25.26722
G1 X131.287 Y89.843 E25.29488
G1 X87.442 Y133.688 E27.22454
G1 X87.442 Y134.577 E27.25220
G1 X132.176 Y89.843 E29.22098
G1 X133.065 Y89.843 E29.24864
G1 X87.442 Y135.465 E31.25653
G1 X87.442 Y136.354 E31.28419
G1 X133.953 Y89.843 E33.33120
G1 X134.842 Y89.843 E33.35887
G1 X87.442 Y137.243 E35.44500
G1 X87.442 Y138.132 E35.47266
G1 X135.731 Y89.843 E37.59791
G1 X136.620 Y89.843 E37.62557
G1 X87.442 Y139.021 E39.78993
G1 X87.442 Y139.910 E39.81759
G1 X137.509 Y89.843 E42.02108
G1 X138.398 Y89.843 E42.04874
G1 X87.442 Y140.799 E44.29134
G1 X87.442 Y141.687 E44.31900
G1 X139.286 Y89.843 E46.60073
G1 X140.175 Y89.843 E46.62839
G1 X87.442 Y142.576 E48.94923
G1 X87.442 Y143.465 E48.97689
G1 X141.064 Y89.843 E51.33685
G1 X141.953 Y89.843 E51.36451
G1 X87.442 Y144.354 E53.76358
G1 X87.442 Y145.243 E53.79124
G1 X142.842 Y89.843 E56.22944
G1 X143.731 Y89.843 E56.25710
G1 X87.442 Y146.132 E58.73441
G1 X87.442 Y147.020 E58.76207
G1 X144.619 Y89.843 E61.27851
G1 X145.508 Y89.843 E61.30617
G1 X87.442 Y147.909 E63.86172
G1 X87.442 Y148.798 E63.88938
G1 X146.397 Y89.843 E66.48405
G1 X147.286 Y89.843 E66.51171
G1 X87.442 Y149.687 E69.14549
G1 X87.442 Y150.576 E69.17316
G1 X148.175 Y89.843 E71.84606
G1 X149.064 Y89.843 E71.87372
G1 X87.442 Y151.465 E74.58575
G1 X87.442 Y152.353 E74.61341
G1 X149.952 Y89.843 E77.36455
G1 X150.841 Y89.843 E77.39221
G1 X87.442 Y153.242 E80.18247
G1 X87.442 Y154.131 E80.21013
G1 X151.730 Y89.843 E83.03951
G1 X152.619 Y89.843 E83.06717
G1 X87.442 Y155.020 E85.93567
G1 X87.442 Y155.909 E85.96333
G1 X153.508 Y89.843 E88.87094
G1 X154.397 Y89.843 E88.89860
G1 X87.442 Y156.798 E91.84534
G1 X87.442 Y157.686 E91.87300
G1 X155.285 Y89.843 E94.85885
G1 X156.174 Y89.843 E94.88651
G1 X87.442 Y158.575 E97.91148
G1 X87.442 Y159.464 E97.93914
G1 X157.063 Y89.843 E101.00323
G1 X157.952 Y89.843 E101.03089
G1 X87.442 Y160.353 E104.13410
G1 X87.442 Y161.242 E104.16176
G1 X158.841 Y89.843 E107.30408
G1 X159.730 Y89.843 E107.33174
G1 X87.442 Y162.131 E110.51319
G1 X87.442 Y163.019 E110.54085
G1 X160.618 Y89.843 E113.76141
G1 X161.507 Y89.843 E113.78907
G1 X87.442 Y163.908 E117.04875
G1 X87.442 Y164.797 E117.07641
G1 X162.396 Y89.843 E120.37521
G1 X162.563 Y89.843 E120.38041
G1 X162.924 Y90.204 E120.39629
G1 X87.783 Y165.345 E123.70330
G1 X88.227 Y165.789 E123.72285
G1 X163.368 Y90.648 E127.02986
G1 X163.813 Y91.093 E127.04942
G1 X88.672 Y166.234 E130.35642
G1 X89.116 Y166.678 E130.37598
G1 X164.257 Y91.537 E133.68298
G1 X164.701 Y91.982 E133.70254
G1 X89.560 Y167.123 E137.00954
G1 X90.005 Y167.567 E137.02910
G1 X165.146 Y92.426 E140.33610
G1 X165.590 Y92.871 E140.35566
G1 X90.449 Y168.012 E143.66267
G1 X90.893 Y168.456 E143.68222
G1 X166.034 Y93.315 E146.98923
G1 X166.478 Y93.760 E147.00879
G1 X91.338 Y168.901 E150.31579
G1 X91.782 Y169.345 E150.33535
G1 X166.923 Y94.204 E153.64235
G1 X167.367 Y94.649 E153.66191
G1 X92.226 Y169.790 E156.96891
G1 X92.670 Y170.234 E156.98847
G1 X128.864 Y134.041 E158.58138
G1 X129.276 Y133.528 E158.60185
G1 X130.385 Y132.389 E158.65133
G1 X131.196 Y131.709 E158.68425
G1 X167.811 Y95.093 E160.29573
G1 X168.256 Y95.538 E160.31528
G1 X133.679 Y130.115 E161.83703
G1 X133.862 Y130.015 E161.84350
G1 X135.251 Y129.432 E161.89039
G1 X168.700 Y95.982 E163.36251
G1 X169.144 Y96.427 E163.38207
G1 X136.539 Y129.032 E164.81705
G1 X137.664 Y128.796 E164.85281
G1 X169.589 Y96.872 E166.25784
G1 X170.033 Y97.316 E166.27740
G1 X138.681 Y128.668 E167.65720
G1 X139.328 Y128.600 E167.67742
G1 X139.642 Y128.596 E167.68720
G1 X170.477 Y97.761 E169.04429
G1 X170.922 Y98.205 E169.06384
G1 X140.543 Y128.583 E170.40081
G1 X140.859 Y128.579 E170.41064
G1 X141.389 Y128.626 E170.42721
G1 X171.366 Y98.650 E171.74649
G1 X171.810 Y99.094 E171.76605
G1 X142.206 Y128.699 E173.06896
G1 X142.959 Y128.835 E173.09277
G1 X172.254 Y99.539 E174.38210
G1 X172.699 Y99.983 E174.40166
G1 X143.702 Y128.980 E175.67785
G1 X144.389 Y129.182 E175.70014
G1 X173.143 Y100.428 E176.96563
G1 X173.587 Y100.872 E176.98519
G1 X145.070 Y129.390 E178.24025
G1 X145.703 Y129.645 E178.26151
G1 X174.032 Y101.317 E179.50826
G1 X174.476 Y101.761 E179.52782
G1 X146.334 Y129.904 E180.76638
G1 X146.918 Y130.208 E180.78688
G1 X174.920 Y102.206 E182.01929
G1 X175.365 Y102.650 E182.03885
G1 X147.502 Y130.513 E183.26511
G1 X148.043 Y130.861 E183.28513
G1 X175.809 Y103.095 E184.50714
G1 X176.253 Y103.539 E184.52670
G1 X148.580 Y131.213 E185.74461
G1 X149.084 Y131.597 E185.76435
G1 X176.698 Y103.984 E186.97962
G1 X177.142 Y104.429 E186.99917
G1 X149.577 Y131.994 E188.21233
G1 X149.817 Y132.187 E188.22193
G1 X150.048 Y132.412 E188.23195
G1 X177.586 Y104.873 E189.44394
G1 X178.031 Y105.318 E189.46350
G1 X150.498 Y132.850 E190.67523
G1 X150.948 Y133.289 E190.69479
G1 X178.475 Y105.762 E191.90625
G1 X178.919 Y106.207 E191.92581
G1 X151.354 Y133.772 E193.13896
G1 X151.759 Y134.255 E193.15859
G1 X179.363 Y106.651 E194.37347
G1 X179.808 Y107.096 E194.39303
G1 X152.131 Y134.772 E195.61110
G1 X152.491 Y135.301 E195.63101
G1 X180.252 Y107.540 E196.85279
G1 X180.696 Y107.985 E196.87234
G1 X152.826 Y135.855 E198.09893
G1 X153.141 Y136.429 E198.11931
G1 X181.141 Y108.429 E199.35161
G1 X181.585 Y108.874 E199.37117
G1 X153.435 Y137.023 E200.61006
G1 X153.701 Y137.647 E200.63114
G1 X182.029 Y109.318 E201.87789
G1 X182.474 Y109.763 E201.89745
G1 X153.949 Y138.287 E203.15282
G1 X154.161 Y138.964 E203.17489
G1 X182.918 Y110.207 E204.44048
G1 X183.362 Y110.652 E204.46004
G1 X154.354 Y139.660 E205.73673
G1 X154.508 Y140.395 E205.76009
G1 X183.807 Y111.096 E207.04955
G1 X184.251 Y111.541 E207.06911
G1 X154.630 Y141.161 E208.37273
G1 X154.717 Y141.963 E208.39783
G1 X184.695 Y111.986 E209.71718
G1 X185.139 Y112.430 E209.73674
G1 X154.750 Y142.820 E211.07421
G1 X154.762 Y143.696 E211.10149
G1 X185.584 Y112.875 E212.45798
G1 X186.028 Y113.319 E212.47754
G1 X154.684 Y144.663 E213.85701
G1 X154.638 Y145.179 E213.87313
G1 X154.541 Y145.695 E213.88947
G1 X186.472 Y113.764 E215.29479
G1 X186.917 Y114.208 E215.31435
G1 X154.301 Y146.824 E216.74980
G1 X153.982 Y147.912 E216.78506
G1 X153.902 Y148.112 E216.79178
G1 X187.361 Y114.653 E218.26434
G1 X187.805 Y115.097 E218.28390
G1 X153.208 Y149.695 E219.80657
G1 X152.807 Y150.463 E219.83353
G1 X152.037 Y151.640 E219.87728
G1 X151.569 Y152.222 E219.90054
G1 X188.250 Y115.542 E221.51487
G1 X188.694 Y115.986 E221.53443
G1 X113.553 Y191.127 E224.84143
G1 X113.997 Y191.572 E224.86099
G1 X189.138 Y116.431 E228.16799
G1 X189.583 Y116.875 E228.18755
G1 X114.442 Y192.016 E231.49456
G1 X114.886 Y192.461 E231.51411
G1 X190.027 Y117.320 E234.82112
G1 X190.471 Y117.764 E234.84068
G1 X115.330 Y192.905 E238.14768
