; generated by PrusaSlicer 2.5.0+MacOS-x64 on 2023-04-03 at 18:58:30 UTC


;
;

;
;
; 

; external perimeters extrusion width = 0.45mm
; perimeters extrusion width = 0.45mm
; infill extrusion width = 0.45mm
; solid infill extrusion width = 0.45mm
; top infill extrusion width = 0.40mm
; support material extrusion width = 0.35mm
; first layer extrusion width = 0.42mm

; external perimeters extrusion width = 0.45mm
; perimeters extrusion width = 0.45mm
; infill extrusion width = 0.45mm
; solid infill extrusion width = 0.45mm
; top infill extrusion width = 0.40mm
; support material extrusion width = 0.35mm
; first layer extrusion width = 0.42mm

M73 P0 R76
M201 X2500 Y2500 Z400 E5000 ; sets maximum accelerations, mm/sec^2
M203 X180 Y180 Z12 E80 ; sets maximum feedrates, mm / sec
M204 P1250 R1250 T2500 ; sets acceleration (P, T) and retract acceleration (R), mm/sec^2
M205 X8.00 Y8.00 Z2.00 E10.00 ; sets the jerk limits, mm/sec
M205 S0 T0 ; sets the minimum extruding and travel feed rate, mm/sec
M107
;TYPE:Custom
M862.3 P "MINI" ; printer model check
G90 ; use absolute coordinates
M83 ; extruder relative mode
M104 S170 ; set extruder temp for bed leveling
M140 S60 ; set bed temp
M109 R170 ; wait for bed leveling temp
M190 S60 ; wait for bed temp
M204 T1250 ; set travel acceleration
G28 ; home all without mesh bed level
G29 ; mesh bed leveling 
M204 T2500 ; restore travel acceleration
M104 S215 ; set extruder temp
G92 E0
G1 Y-2 X179 F2400
G1 Z3 F720
M109 S215 ; wait for extruder temp

; intro line
G1 X170 F1000
G1 Z0.2 F720
G1 X110 E8 F900
G1 X40 E10 F700
G92 E0

M221 S95 ; set flow
G21 ; set units to millimeters
G90 ; use absolute coordinates
M83 ; use relative distances for extrusion
M900 K0.2 ; Filament gcode LA 1.5
; ; Filament gcode LA 1.0
M107
;LAYER_CHANGE
;Z:0.2
;HEIGHT:0.2
;BEFORE_LAYER_CHANGE
G92 E0.0
;0.2


G1 E-3.2 F4200
G1 Z.2 F720
;AFTER_LAYER_CHANGE
;0.2
G1 Z.4
G1 X89.237 Y45.104 F9000
G1 Z.2 F720
G1 E3.2 F2400
M204 P800
;TYPE:Skirt/Brim
;WIDTH:0.42
G1 F1200
G1 X89.554 Y44.525 E.02068
G1 X93.157 Y39.693 E.18899
G1 X93.492 Y39.322 E.01567
G1 X95.173 Y38.626 E.05704
G1 X142.948 Y38.626 E1.49794
G1 X144.628 Y39.322 E.05704
G1 X148.6 Y44.515 E.20497
G1 X149.079 Y45.946 E.04732
G1 X149.079 Y82.715 E1.15287
G1 X148.667 Y84.052 E.04386
G1 X120.406 Y125.6 E1.57553
G1 X119.331 Y126.467 E.0433
G1 X72.65 Y145.328 E1.5786
G1 X71.292 Y145.454 E.04278
G1 X70.424 Y145.09 E.02949
G1 X65.921 Y142.032 E.1707
G1 X64.908 Y140.435 E.05928
G1 X63.61 Y132.195 E.26155
G1 X63.581 Y114.182 E.56478
G1 X63.685 Y113.487 E.02205
G1 X65.228 Y108.462 E.1648
G1 X89.216 Y45.16 E2.12253
M204 P1000
G1 E-2.24 F4200
;WIPE_START
G1 F7200
G1 X89.554 Y44.525 E-.39847
G1 X90.108 Y43.782 E-.51353
;WIPE_END
G1 E-.048 F4200
G1 Z.4 F720
G1 X94.055 Y97.003 F9000
G1 Z.2 F720
G1 E3.2 F2400
M204 P800
G1 F1200
G1 X96.082 Y96.829 E.06379
G1 X96.376 Y96.877 E.00934
G1 X97.432 Y97.204 E.03466
G1 X98.695 Y98.014 E.04702
G1 X117.747 Y117.495 E.85437
G1 X118.519 Y118.816 E.04797
G1 X118.841 Y120.286 E.04718
G1 X118.802 Y121.117 E.02609
G1 X118.638 Y121.923 E.02579
G1 X118.209 Y122.952 E.03495
G1 X117.359 Y124.04 E.04332
G1 X116.199 Y124.86 E.04451
G1 X73.78 Y141.999 E1.43449
G1 X72.146 Y142.21 E.05167
G1 X70.99 Y142.01 E.03678
G1 X69.977 Y141.568 E.03464
G1 X69.093 Y140.92 E.03437
G1 X68.346 Y140.055 E.03583
G1 X67.806 Y138.965 E.03814
G1 X67.557 Y137.759 E.03861
G1 X67.73 Y110.455 E.85612
G1 X68.268 Y108.679 E.05819
G1 X68.402 Y108.401 E.00966
G1 X69.28 Y107.335 E.04332
G1 X70.431 Y106.548 E.04371
G1 X94 Y97.025 E.79702
M204 P1000
G1 X94.141 Y97.375 F9000
M204 P800
G1 F1200
G1 X96.046 Y97.205 E.05997
G1 X96.278 Y97.242 E.00737
G1 X97.296 Y97.557 E.03342
G1 X98.44 Y98.292 E.04264
G1 X117.462 Y117.742 E.853
G1 X118.158 Y118.927 E.04309
M73 P0 R75
G1 X118.463 Y120.294 E.04392
G1 X118.429 Y121.056 E.02392
G1 X118.272 Y121.829 E.02472
G1 X117.872 Y122.781 E.03239
G1 X117.08 Y123.785 E.04008
G1 X116.038 Y124.518 E.03994
G1 X73.661 Y141.64 E1.43307
G1 X72.18 Y141.833 E.04682
G1 X71.118 Y141.654 E.03379
G1 X70.181 Y141.251 E.03197
G1 X69.362 Y140.655 E.03174
G1 X68.672 Y139.866 E.03287
G1 X68.155 Y138.82 E.03659
G1 X67.934 Y137.742 E.03449
G1 X68.107 Y110.485 E.85464
G1 X68.623 Y108.805 E.05512
M73 P1 R75
G1 X68.73 Y108.589 E.00755
G1 X69.553 Y107.596 E.04043
G1 X70.591 Y106.89 E.03935
G1 X94.085 Y97.398 E.79452
M204 P1000
G1 X94.227 Y97.747 F9000
M204 P800
G1 F1200
G1 X94.285 Y97.724 E.00197
G1 X96.012 Y97.581 E.05434
G1 X96.181 Y97.606 E.00535
G1 X97.16 Y97.909 E.03214
G1 X98.185 Y98.571 E.03826
G1 X117.176 Y117.989 E.8516
G1 X117.817 Y119.091 E.03998
G1 X118.085 Y120.302 E.03889
G1 X118.053 Y121.024 E.02267
G1 X117.907 Y121.734 E.02273
G1 X117.535 Y122.611 E.02985
G1 X116.839 Y123.493 E.03524
G1 X115.876 Y124.177 E.03703
G1 X73.542 Y141.282 E1.43162
G1 X72.213 Y141.457 E.04201
G1 X71.244 Y141.298 E.03081
G1 X70.384 Y140.932 E.0293
G1 X69.63 Y140.389 E.02912
G1 X68.998 Y139.674 E.02993
G1 X68.519 Y138.718 E.03352
G1 X68.312 Y137.724 E.03184
G1 X68.484 Y110.516 E.85311
G1 X68.978 Y108.933 E.05199
G1 X69.057 Y108.778 E.00545
G1 X69.789 Y107.892 E.03604
G1 X70.751 Y107.232 E.0366
G1 X94.171 Y97.77 E.79198
M204 P1000
G1 X94.312 Y98.119 F9000
M204 P800
G1 F1200
G1 X94.399 Y98.084 E.00295
G1 X95.982 Y97.957 E.04977
G1 X96.085 Y97.971 E.00328
G1 X97.024 Y98.262 E.0308
G1 X97.93 Y98.85 E.03387
G1 X116.89 Y118.236 E.85023
G1 X117.456 Y119.204 E.03514
G1 X117.708 Y120.311 E.0356
G1 X117.677 Y120.992 E.02137
G1 X117.542 Y121.638 E.0207
G1 X117.199 Y122.438 E.02729
G1 X116.562 Y123.237 E.03204
G1 X115.715 Y123.836 E.03251
G1 X73.422 Y140.923 E1.4302
G1 X72.244 Y141.08 E.03725
G1 X71.368 Y140.941 E.02783
G1 X70.585 Y140.612 E.02662
G1 X69.896 Y140.121 E.02651
G1 X69.322 Y139.48 E.02699
G1 X68.882 Y138.615 E.03044
G1 X68.689 Y137.706 E.02914
G1 X68.86 Y110.547 E.85155
G1 X69.332 Y109.065 E.04878
G1 X69.381 Y108.972 E.0033
G1 X70.061 Y108.154 E.03336
G1 X70.911 Y107.574 E.03226
G1 X94.257 Y98.142 E.78947
M204 P1000
G1 X94.398 Y98.491 F9000
M204 P800
G1 F1200
G1 X94.514 Y98.445 E.00391
G1 X95.993 Y98.337 E.04649
G1 X96.887 Y98.614 E.02935
G1 X97.675 Y99.128 E.02949
G1 X116.604 Y118.483 E.84884
G1 X117.115 Y119.367 E.03203
G1 X117.33 Y120.32 E.03064
G1 X117.305 Y120.93 E.01913
G1 X117.176 Y121.543 E.01963
G1 X116.886 Y122.225 E.02325
G1 X116.32 Y122.947 E.02875
G1 X115.553 Y123.495 E.02956
G1 X73.303 Y140.565 E1.42875
G1 X72.274 Y140.703 E.03255
G1 X71.49 Y140.584 E.02486
G1 X70.784 Y140.292 E.02395
G1 X70.161 Y139.852 E.02393
G1 X69.645 Y139.284 E.02404
G1 X69.245 Y138.509 E.02734
G1 X69.066 Y137.687 E.02639
G1 X69.237 Y110.579 E.84995
G1 X69.701 Y109.171 E.04649
G1 X70.297 Y108.449 E.02935
G1 X71.072 Y107.916 E.02949
G1 X94.342 Y98.514 E.78693
M204 P1000
G1 X94.484 Y98.863 F9000
M204 P800
G1 F1200
G1 X94.627 Y98.806 E.00484
G1 X95.932 Y98.713 E.04101
G1 X96.75 Y98.967 E.02686
G1 X97.419 Y99.406 E.02511
G1 X116.318 Y118.73 E.84748
G1 X116.754 Y119.481 E.02723
G1 X116.952 Y120.333 E.02742
G1 X116.932 Y120.869 E.01683
G1 X116.811 Y121.447 E.01851
G1 X116.55 Y122.052 E.02067
G1 X116.042 Y122.691 E.02559
G1 X115.391 Y123.153 E.02504
G1 X73.183 Y140.206 E1.42734
G1 X72.301 Y140.326 E.0279
G1 X71.61 Y140.226 E.02191
G1 X70.982 Y139.97 E.02126
G1 X70.423 Y139.58 E.02136
G1 X69.967 Y139.086 E.0211
G1 X69.607 Y138.402 E.02423
G1 X69.443 Y137.667 E.02359
G1 X69.614 Y110.612 E.84832
G1 X70.025 Y109.37 E.04101
G1 X70.571 Y108.71 E.02686
G1 X71.232 Y108.258 E.02511
G1 X94.428 Y98.886 E.78442
M204 P1000
G1 X94.569 Y99.236 F9000
M204 P800
G1 F1200
G1 X94.741 Y99.166 E.00581
G1 X95.857 Y99.084 E.03509
G1 X96.568 Y99.298 E.02328
G1 X97.165 Y99.685 E.02229
G1 X116.031 Y118.976 E.84604
G1 X116.413 Y119.643 E.02411
G1 X116.575 Y120.345 E.02258
G1 X116.56 Y120.808 E.01453
G1 X116.446 Y121.35 E.01735
G1 X116.215 Y121.878 E.01808
G1 X115.8 Y122.4 E.02091
G1 X115.228 Y122.812 E.0221
G1 X73.063 Y139.848 E1.42588
G1 X72.326 Y139.949 E.02332
G1 X71.727 Y139.867 E.01896
G1 X71.177 Y139.647 E.01857
G1 X70.683 Y139.306 E.01882
G1 X70.286 Y138.884 E.01816
G1 X69.969 Y138.291 E.02109
G1 X69.821 Y137.647 E.02072
G1 X69.991 Y110.643 E.8467
G1 X70.34 Y109.58 E.03508
G1 X70.808 Y109.004 E.02329
G1 X71.393 Y108.599 E.02229
G1 X94.514 Y99.258 E.78187
M204 P1000
G1 X94.655 Y99.608 F9000
M204 P800
G1 F1200
G1 X94.856 Y99.527 E.00679
G1 X95.786 Y99.456 E.02925
G1 X96.389 Y99.631 E.01971
G1 X96.911 Y99.964 E.0194
G1 X115.745 Y119.223 E.84461
G1 X116.053 Y119.758 E.01937
G1 X116.197 Y120.361 E.01944
G1 X116.187 Y120.748 E.01214
G1 X116.082 Y121.252 E.01615
G1 X115.882 Y121.701 E.0154
G1 X115.524 Y122.143 E.01783
G1 X115.066 Y122.471 E.01766
G1 X72.943 Y139.49 E1.42445
G1 X72.349 Y139.572 E.01882
G1 X71.842 Y139.507 E.01603
G1 X71.371 Y139.322 E.01586
G1 X70.94 Y139.03 E.01631
G1 X70.604 Y138.68 E.01523
G1 X70.329 Y138.178 E.01794
G1 X70.198 Y137.626 E.01778
G1 X70.368 Y110.675 E.84507
G1 X70.657 Y109.788 E.02925
G1 X71.048 Y109.296 E.01971
G1 X71.555 Y108.941 E.0194
G1 X94.599 Y99.63 E.77929
M204 P1000
G1 X94.74 Y99.98 F9000
M204 P800
G1 F1200
G1 X94.97 Y99.887 E.00777
G1 X95.718 Y99.828 E.02351
G1 X96.214 Y99.966 E.01613
G1 X96.657 Y100.244 E.01642
G1 X115.459 Y119.47 E.84316
G1 X115.694 Y119.876 E.01471
M73 P2 R75
G1 X115.82 Y120.381 E.01631
G1 X115.814 Y120.689 E.00967
G1 X115.716 Y121.156 E.01496
G1 X115.57 Y121.487 E.01134
G1 X115.279 Y121.855 E.01472
G1 X114.902 Y122.131 E.01463
G1 X72.824 Y139.132 E1.42297
G1 X72.368 Y139.195 E.01441
G1 X71.952 Y139.146 E.01313
G1 X71.564 Y138.998 E.01305
G1 X71.168 Y138.729 E.015
G1 X70.92 Y138.472 E.01118
G1 X70.688 Y138.061 E.01481
G1 X70.575 Y137.604 E.01475
G1 X70.745 Y110.706 E.8434
G1 X70.975 Y109.992 E.02351
G1 X71.291 Y109.586 E.01613
G1 X71.717 Y109.282 E.01642
G1 X94.685 Y100.002 E.77669
M204 P1000
G1 X94.826 Y100.352 F9000
M204 P800
G1 F1200
G1 X95.085 Y100.247 E.00876
G1 X95.655 Y100.201 E.01791
G1 X96.042 Y100.303 E.01256
G1 X96.404 Y100.525 E.01334
G1 X115.173 Y119.717 E.84168
G1 X115.336 Y119.997 E.01016
G1 X115.443 Y120.405 E.0132
G1 X115.441 Y120.631 E.00711
G1 X115.352 Y121.057 E.01365
G1 X115.238 Y121.307 E.00859
G1 X115.002 Y121.598 E.01174
G1 X114.74 Y121.79 E.01021
G1 X72.704 Y138.773 E1.42151
G1 X72.384 Y138.818 E.01012
G1 X72.058 Y138.783 E.01027
G1 X71.755 Y138.672 E.01012
G1 X71.395 Y138.427 E.01367
G1 X71.236 Y138.265 E.00711
G1 X71.029 Y137.898 E.0132
G1 X70.952 Y137.584 E.01016
G1 X71.122 Y110.736 E.84179
G1 X71.296 Y110.192 E.01791
M73 P2 R74
G1 X71.537 Y109.873 E.01256
G1 X71.881 Y109.622 E.01334
G1 X94.77 Y100.374 E.77405
M204 P1000
G1 X94.912 Y100.724 F9000
M204 P800
G1 F1200
G1 X95.201 Y100.607 E.00977
G1 X95.591 Y100.574 E.01227
G1 X95.918 Y100.66 E.01062
G1 X96.15 Y100.805 E.00857
G1 X114.888 Y119.964 E.84027
G1 X114.98 Y120.122 E.00574
G1 X115.066 Y120.435 E.01017
G1 X115.067 Y120.575 E.0044
G1 X114.987 Y120.961 E.01235
G1 X114.93 Y121.089 E.0044
G1 X114.725 Y121.341 E.01017
G1 X114.577 Y121.449 E.00574
G1 X72.584 Y138.415 E1.42007
G1 X72.401 Y138.44 E.00579
G1 X72.121 Y138.411 E.00882
G1 X71.948 Y138.347 E.00579
G1 X71.625 Y138.127 E.01226
G1 X71.528 Y138.026 E.0044
G1 X71.373 Y137.741 E.01017
G1 X71.329 Y137.563 E.00574
G1 X71.499 Y110.767 E.8402
G1 X71.616 Y110.393 E.01227
G1 X71.82 Y110.123 E.01062
G1 X72.042 Y109.964 E.00857
G1 X94.856 Y100.746 E.77148
M204 P1000
G1 X94.997 Y101.096 F9000
M204 P800
G1 F1200
G1 X95.316 Y100.967 E.01079
G1 X95.535 Y100.948 E.00688
G1 X95.753 Y101 E.00703
G1 X95.899 Y101.087 E.00533
G1 X114.602 Y120.211 E.83872
G1 X114.693 Y120.524 E.0102
G1 X114.603 Y120.9 E.01214
G1 X114.414 Y121.108 E.00879
G1 X72.464 Y138.057 E1.41862
G1 X72.141 Y138.022 E.0102
G1 X71.858 Y137.83 E.01072
G1 X71.707 Y137.542 E.0102
G1 X71.876 Y110.797 E.83861
G1 X71.941 Y110.587 E.00688
G1 X72.072 Y110.405 E.00703
G1 X72.208 Y110.304 E.00533
G1 X94.942 Y101.118 E.76878
M204 P1000
G1 X95.083 Y101.468 F9000
M204 P800
G1 F1200
G1 X95.432 Y101.327 E.0118
G1 X95.488 Y101.322 E.00176
G1 X95.651 Y101.373 E.00537
G1 X114.283 Y120.425 E.83553
G1 X114.31 Y120.515 E.00296
G1 X114.268 Y120.712 E.0063
G1 X114.208 Y120.784 E.00296
G1 X72.388 Y137.681 E1.4142
G1 X72.294 Y137.671 E.00296
G1 X72.128 Y137.558 E.0063
G1 X72.084 Y137.474 E.00296
G1 X72.252 Y110.827 E.83553
G1 X72.269 Y110.773 E.00176
G1 X72.378 Y110.641 E.00537
G1 X95.027 Y101.491 E.76591
M204 P1000
G1 E-2.24 F4200
;WIPE_START
G1 F7200
G1 X95.432 Y101.327 E-.24178
G1 X95.488 Y101.322 E-.03106
G1 X95.651 Y101.373 E-.0949
G1 X96.338 Y102.075 E-.54426
;WIPE_END
G1 E-.048 F4200
G1 Z.4 F720
G1 X96.113 Y85.416 F9000
G1 Z.2 F720
G1 E3.2 F2400
M204 P800
G1 F1200
G1 X94.143 Y84.793 E.06477
G1 X93.484 Y84.31 E.02562
G1 X92.766 Y83.588 E.03191
G1 X92.084 Y82.393 E.04316
G1 X91.747 Y81.02 E.04433
G1 X91.747 Y47.611 E1.0475
G1 X92.37 Y45.642 E.06477
G1 X92.853 Y44.983 E.02562
G1 X93.574 Y44.265 E.03191
G1 X94.77 Y43.582 E.04316
G1 X96.143 Y43.245 E.04434
G1 X141.991 Y43.249 E1.43754
G1 X143.011 Y43.442 E.03256
G1 X143.99 Y43.858 E.03333
G1 X145.114 Y44.754 E.04508
G1 X146.007 Y46.092 E.05044
G1 X146.415 Y47.637 E.05011
G1 X146.415 Y81.049 E1.04762
G1 X145.792 Y83.019 E.06477
G1 X145.309 Y83.678 E.02562
G1 X144.588 Y84.396 E.03191
G1 X143.392 Y85.079 E.04316
G1 X142.019 Y85.416 E.04433
G1 X96.173 Y85.416 E1.43748
M204 P1000
G1 X96.173 Y85.039 F9000
M204 P800
G1 F1200
G1 X94.341 Y84.47 E.06016
G1 X93.741 Y84.033 E.02326
G1 X93.052 Y83.34 E.03063
G1 X92.425 Y82.231 E.03997
G1 X92.124 Y80.997 E.03981
G1 X92.124 Y47.64 E1.04589
G1 X92.693 Y45.839 E.05923
G1 X93.129 Y45.239 E.02326
G1 X93.822 Y44.55 E.03063
G1 X94.932 Y43.923 E.03997
G1 X96.165 Y43.622 E.03981
G1 X141.973 Y43.626 E1.43626
G1 X142.919 Y43.809 E.03022
G1 X143.817 Y44.194 E.03062
G1 X144.855 Y45.029 E.0418
G1 X145.651 Y46.22 E.0449
G1 X146.038 Y47.662 E.04682
G1 X146.038 Y81.021 E1.04593
G1 X145.469 Y82.822 E.05923
M73 P3 R74
G1 X145.032 Y83.422 E.02326
G1 X144.34 Y84.111 E.03063
G1 X143.23 Y84.738 E.03997
G1 X141.997 Y85.039 E.03981
G1 X96.233 Y85.039 E1.43489
M204 P1000
G1 X96.233 Y84.662 F9000
M204 P800
G1 F1200
G1 X96.171 Y84.662 E.00195
G1 X94.537 Y84.146 E.05372
G1 X93.997 Y83.756 E.02088
G1 X93.337 Y83.092 E.02935
G1 X92.784 Y82.114 E.03522
G1 X92.501 Y80.974 E.03685
G1 X92.501 Y47.669 E1.04425
G1 X93.016 Y46.035 E.05372
G1 X93.406 Y45.496 E.02088
G1 X94.07 Y44.835 E.02935
G1 X95.048 Y44.283 E.03523
G1 X96.189 Y43.999 E.03686
G1 X141.954 Y44.003 E1.43494
G1 X142.826 Y44.174 E.02785
G1 X143.642 Y44.529 E.0279
G1 X144.594 Y45.303 E.03848
G1 X145.319 Y46.401 E.04126
G1 X145.661 Y47.687 E.0417
G1 X145.661 Y80.992 E1.04426
G1 X145.146 Y82.626 E.05372
G1 X144.756 Y83.165 E.02088
G1 X144.092 Y83.825 E.02935
G1 X143.114 Y84.378 E.03522
G1 X141.973 Y84.662 E.03685
G1 X96.293 Y84.662 E1.43227
M204 P1000
G1 X96.293 Y84.285 F9000
M204 P800
G1 F1200
G1 X96.199 Y84.285 E.00293
G1 X94.732 Y83.823 E.04824
G1 X94.253 Y83.479 E.01847
G1 X93.622 Y82.844 E.02805
G1 X93.143 Y81.997 E.03052
G1 X92.878 Y80.95 E.03387
G1 X92.878 Y47.698 E1.0426
G1 X93.34 Y46.23 E.04824
G1 X93.684 Y45.752 E.01847
G1 X94.318 Y45.121 E.02805
G1 X95.166 Y44.642 E.03052
G1 X96.213 Y44.376 E.03387
G1 X141.935 Y44.38 E1.43359
G1 X142.731 Y44.54 E.02544
G1 X143.466 Y44.863 E.02518
G1 X144.332 Y45.575 E.03516
G1 X144.987 Y46.581 E.03763
G1 X145.284 Y47.711 E.03663
G1 X145.284 Y80.963 E1.0426
G1 X144.822 Y82.431 E.04824
G1 X144.478 Y82.909 E.01847
G1 X143.844 Y83.54 E.02805
G1 X142.996 Y84.019 E.03052
G1 X141.949 Y84.285 E.03387
G1 X96.353 Y84.285 E1.42964
M204 P1000
G1 X96.353 Y83.908 F9000
M204 P800
G1 F1200
G1 X96.228 Y83.908 E.00391
G1 X94.926 Y83.498 E.0428
G1 X94.509 Y83.201 E.01604
G1 X93.908 Y82.597 E.02674
G1 X93.502 Y81.878 E.02587
G1 X93.255 Y80.925 E.03086
G1 X93.255 Y47.727 E1.04093
G1 X93.664 Y46.424 E.0428
M73 P3 R73
G1 X93.961 Y46.008 E.01604
G1 X94.566 Y45.406 E.02674
G1 X95.284 Y45 E.02587
G1 X96.237 Y44.753 E.03086
G1 X141.916 Y44.757 E1.43224
G1 X142.598 Y44.893 E.02178
G1 X143.289 Y45.198 E.02369
G1 X144.069 Y45.847 E.03181
G1 X144.63 Y46.708 E.03225
G1 X144.907 Y47.736 E.03337
G1 X144.907 Y80.934 E1.04091
G1 X144.498 Y82.236 E.0428
