; generated by PrusaSlicer 2.5.0+MacOS-x64 on 2023-01-31 at 19:59:29 UTC


;
;

;
;
; 

; external perimeters extrusion width = 0.45mm
; perimeters extrusion width = 0.45mm
; infill extrusion width = 0.45mm
; solid infill extrusion width = 0.45mm
; top infill extrusion width = 0.40mm
; support material extrusion width = 0.35mm
; first layer extrusion width = 0.42mm

M73 P0 R45
M201 X2500 Y2500 Z400 E5000 ; sets maximum accelerations, mm/sec^2
M203 X180 Y180 Z12 E80 ; sets maximum feedrates, mm / sec
M204 P1250 R1250 T2500 ; sets acceleration (P, T) and retract acceleration (R), mm/sec^2
M205 X8.00 Y8.00 Z2.00 E10.00 ; sets the jerk limits, mm/sec
M205 S0 T0 ; sets the minimum extruding and travel feed rate, mm/sec
M107
;TYPE:Custom
M862.3 P "MINI" ; printer model check
G90 ; use absolute coordinates
M83 ; extruder relative mode
M104 S170 ; set extruder temp for bed leveling
M140 S60 ; set bed temp
M109 R170 ; wait for bed leveling temp
M190 S60 ; wait for bed temp
M204 T1250 ; set travel acceleration
G28 ; home all without mesh bed level
G29 ; mesh bed leveling 
M204 T2500 ; restore travel acceleration
M104 S215 ; set extruder temp
G92 E0
G1 Y-2 X179 F2400
G1 Z3 F720
M109 S215 ; wait for extruder temp

; intro line
G1 X170 F1000
G1 Z0.2 F720
G1 X110 E8 F900
G1 X40 E10 F700
G92 E0

M221 S95 ; set flow
G21 ; set units to millimeters
G90 ; use absolute coordinates
M83 ; use relative distances for extrusion
M900 K0.2 ; Filament gcode LA 1.5
; ; Filament gcode LA 1.0
M107
;LAYER_CHANGE
;Z:0.2
;HEIGHT:0.2
;BEFORE_LAYER_CHANGE
G92 E0.0
;0.2


G1 E-3.2 F4200
G1 Z.2 F720
;AFTER_LAYER_CHANGE
;0.2
M73 P0 R44
G1 Z.4
G1 X77.111 Y76.648 F9000
G1 Z.2 F720
G1 E3.2 F2400
M204 P800
;TYPE:Skirt/Brim
;WIDTH:0.42
G1 F1200
G1 X78.201 Y75.725 E.04479
G1 X80.376 Y74.16 E.08402
G1 X81.024 Y73.769 E.02374
G1 X83.199 Y72.721 E.07569
G1 X86.599 Y71.748 E.11087
G1 X88.317 Y71.543 E.05425
G1 X90.361 Y71.45 E.06417
G1 X92.485 Y71.618 E.0668
G1 X95.002 Y72.134 E.08055
G1 X97.768 Y73.157 E.09248
G1 X98.729 Y73.632 E.03359
G1 X101.088 Y75.111 E.08732
G1 X103.592 Y77.366 E.10566
G1 X104.348 Y78.242 E.03626
G1 X105.608 Y80.074 E.06972
G1 X106.325 Y81.281 E.04403
G1 X107.297 Y83.267 E.06934
G1 X107.574 Y84.043 E.02581
G1 X108.299 Y86.905 E.09259
G1 X108.559 Y90.354 E.10843
G1 X108.426 Y92.221 E.05871
G1 X108.11 Y93.918 E.0541
G1 X107.722 Y95.505 E.05123
G1 X107.013 Y97.392 E.06321
G1 X106.148 Y99.026 E.05797
G1 X104.848 Y101.113 E.0771
G1 X103.998 Y102.174 E.04262
G1 X102.712 Y103.502 E.05796
G1 X101.73 Y104.373 E.04115
G1 X100.605 Y105.19 E.04361
G1 X98.26 Y106.758 E.08844
G1 X97.525 Y107.105 E.02549
G1 X93.985 Y108.111 E.11539
G1 X92.491 Y108.387 E.04764
G1 X90.693 Y108.522 E.05652
G1 X87.389 Y108.379 E.1037
G1 X85.348 Y107.959 E.06532
G1 X82.839 Y107.111 E.08305
G1 X81.798 Y106.63 E.03597
G1 X79.435 Y105.22 E.08627
G1 X77.954 Y104.106 E.05808
G1 X76.928 Y103.166 E.04364
G1 X75.034 Y100.948 E.09145
G1 X74.355 Y99.978 E.03713
G1 X73.14 Y97.743 E.07976
G1 X72.35 Y95.967 E.06094
G1 X72.165 Y95.378 E.01935
G1 X71.653 Y92.711 E.08515
G1 X71.453 Y90.166 E.08005
G1 X71.521 Y88.439 E.05421
G1 X71.964 Y84.961 E.10993
G1 X72.24 Y84.064 E.0294
G1 X73.539 Y81.508 E.08992
G1 X74.879 Y79.245 E.08246
G1 X77.072 Y76.694 E.10547
M204 P1000
G1 X77.357 Y76.94 F9000
M204 P800
G1 F1200
G1 X78.422 Y76.031 E.0439
G1 X80.576 Y74.48 E.08323
G1 X81.193 Y74.106 E.0226
G1 X83.33 Y73.075 E.07438
G1 X86.658 Y72.12 E.10859
G1 X88.346 Y71.919 E.05328
G1 X90.334 Y71.826 E.06242
G1 X92.428 Y71.991 E.06584
G1 X94.919 Y72.502 E.07975
G1 X97.61 Y73.5 E.08998
G1 X98.536 Y73.956 E.03237
G1 X100.861 Y75.412 E.086
G1 X103.319 Y77.626 E.10374
G1 X104.051 Y78.474 E.03512
G1 X105.294 Y80.281 E.06876
G1 X105.991 Y81.457 E.04286
G1 X106.944 Y83.4 E.06787
G1 X107.209 Y84.139 E.02459
G1 X107.929 Y86.977 E.09182
G1 X108.182 Y90.359 E.10633
G1 X108.052 Y92.169 E.05689
G1 X107.741 Y93.839 E.05324
G1 X107.363 Y95.388 E.05
G1 X106.667 Y97.241 E.06208
G1 X105.822 Y98.837 E.05663
G1 X104.536 Y100.902 E.07626
G1 X103.715 Y101.924 E.04111
G1 X102.442 Y103.238 E.05735
G1 X101.491 Y104.081 E.03985
G1 X100.391 Y104.879 E.04263
G1 X98.051 Y106.444 E.08826
G1 X97.416 Y106.744 E.022
G1 X93.906 Y107.742 E.11443
G1 X92.448 Y108.012 E.04648
G1 X90.693 Y108.145 E.05519
G1 X87.457 Y108.008 E.10154
G1 X85.457 Y107.598 E.06402
G1 X82.971 Y106.757 E.08231
G1 X81.974 Y106.297 E.03441
G1 X79.644 Y104.906 E.0851
G1 X78.191 Y103.813 E.05699
G1 X77.191 Y102.896 E.04256
G1 X75.327 Y100.711 E.09004
G1 X74.672 Y99.775 E.03582
G1 X73.477 Y97.574 E.07853
G1 X72.695 Y95.815 E.06036
G1 X72.535 Y95.307 E.0167
G1 X72.026 Y92.654 E.0847
G1 X71.831 Y90.238 E.076
G1 X71.904 Y88.404 E.05755
M73 P1 R44
G1 X72.339 Y85.009 E.10733
G1 X72.576 Y84.235 E.02538
G1 X73.869 Y81.691 E.08945
G1 X75.196 Y79.449 E.08171
G1 X77.318 Y76.985 E.10195
M204 P1000
G1 E-2.24 F4200
;WIPE_START
G1 F7200
G1 X78.422 Y76.031 E-.80878
G1 X78.573 Y75.922 E-.10322
;WIPE_END
G1 E-.048 F4200
G1 Z.4 F720
G1 X79.255 Y78.811 F9000
G1 Z.2 F720
G1 E3.2 F2400
M204 P800
G1 F1200
G1 X81.995 Y76.736 E.10777
G1 X84.262 Y75.573 E.07989
G1 X87.287 Y74.713 E.0986
G1 X88.649 Y74.567 E.04295
G1 X90.213 Y74.487 E.0491
G1 X92.221 Y74.655 E.0632
G1 X94.176 Y75.067 E.06262
G1 X95.349 Y75.534 E.03961
G1 X96.547 Y75.942 E.03966
G1 X97.191 Y76.256 E.02248
G1 X97.986 Y76.729 E.02901
G1 X99.282 Y77.558 E.04821
G1 X100.504 Y78.618 E.05074
G1 X101.475 Y79.546 E.0421
G1 X102.511 Y80.904 E.05357
G1 X102.853 Y81.458 E.02042
G1 X103.099 Y81.796 E.0131
G1 X103.724 Y82.866 E.03886
G1 X104.499 Y84.465 E.05571
G1 X105.275 Y87.257 E.09086
G1 X105.514 Y90.171 E.09167
G1 X105.428 Y91.677 E.0473
G1 X105.159 Y93.175 E.04772
G1 X104.819 Y94.595 E.04578
G1 X104.323 Y95.949 E.04522
G1 X103.932 Y96.771 E.02855
G1 X103.479 Y97.565 E.02866
G1 X102.32 Y99.42 E.06857
G1 X101.62 Y100.269 E.03449
G1 X100.54 Y101.374 E.04843
G1 X99.838 Y101.992 E.02932
G1 X98.836 Y102.716 E.03877
G1 X98.009 Y103.268 E.03117
G1 X97.418 Y103.602 E.02129
G1 X96.028 Y104.253 E.04814
G1 X94.856 Y104.734 E.03971
G1 X93.534 Y105.098 E.04299
G1 X92.212 Y105.354 E.04222
G1 X90.516 Y105.483 E.05333
G1 X89.315 Y105.452 E.03769
G1 X87.779 Y105.361 E.04824
G1 X86.223 Y105.047 E.04976
G1 X85.003 Y104.672 E.04003
G1 X83.69 Y104.176 E.04399
G1 X81.101 Y102.676 E.09381
G1 X79.921 Y101.783 E.04643
G1 X78.843 Y100.783 E.04608
G1 X77.39 Y99.026 E.07149
G1 X77.065 Y98.571 E.01753
G1 X76.328 Y97.312 E.04574
G1 X75.667 Y95.983 E.04655
G1 X75.496 Y95.363 E.02015
G1 X75.268 Y94.796 E.01915
G1 X75.167 Y94.411 E.01248
G1 X75.021 Y93.976 E.0144
G1 X74.684 Y92.392 E.05079
G1 X74.575 Y91.629 E.02417
G1 X74.494 Y90.182 E.04543
G1 X74.498 Y89.371 E.02545
G1 X74.563 Y88.615 E.02378
G1 X74.922 Y86.354 E.07178
G1 X75.426 Y84.833 E.05023
G1 X75.585 Y84.445 E.01315
G1 X75.743 Y83.911 E.01747
G1 X76.223 Y82.939 E.03399
G1 X76.7 Y82.085 E.03066
G1 X77.367 Y80.991 E.04017
G1 X79.216 Y78.857 E.08854
M204 P1000
G1 X79.5 Y79.104 F9000
M204 P800
G1 F1200
G1 X82.209 Y77.046 E.10664
G1 X84.383 Y75.931 E.07663
G1 X87.343 Y75.086 E.09651
G1 X88.674 Y74.943 E.04196
G1 X90.194 Y74.864 E.04775
G1 X92.155 Y75.026 E.06169
G1 X94.082 Y75.432 E.06173
G1 X95.219 Y75.887 E.0384
G1 X96.393 Y76.286 E.03887
G1 X97.005 Y76.584 E.02137
G1 X97.786 Y77.048 E.02846
G1 X99.067 Y77.868 E.04768
G1 X100.253 Y78.899 E.0493
G1 X101.203 Y79.808 E.04121
G1 X102.205 Y81.125 E.05189
G1 X102.54 Y81.669 E.02003
G1 X102.778 Y81.995 E.01267
G1 X103.388 Y83.037 E.03786
G1 X104.152 Y84.614 E.05494
G1 X104.906 Y87.34 E.0887
G1 X105.137 Y90.163 E.08878
G1 X105.053 Y91.644 E.04653
G1 X104.789 Y93.103 E.04648
G1 X104.461 Y94.476 E.04427
G1 X103.979 Y95.795 E.04404
G1 X103.594 Y96.603 E.02805
G1 X103.153 Y97.375 E.02789
G1 X102.006 Y99.21 E.06783
G1 X101.345 Y100.011 E.03259
G1 X100.275 Y101.105 E.04797
G1 X99.61 Y101.692 E.0278
G1 X98.618 Y102.408 E.03837
G1 X97.817 Y102.943 E.03019
G1 X97.251 Y103.264 E.02039
G1 X95.872 Y103.909 E.04776
G1 X94.724 Y104.38 E.03892
G1 X93.441 Y104.732 E.04169
G1 X92.151 Y104.982 E.0412
G1 X90.516 Y105.105 E.05142
G1 X89.33 Y105.075 E.0372
G1 X88.511 Y105.015 E.02575
G1 X87.837 Y104.988 E.02116
G1 X86.325 Y104.684 E.04835
G1 X85.13 Y104.317 E.03918
G1 X83.838 Y103.829 E.04331
G1 X81.319 Y102.369 E.09128
G1 X80.17 Y101.5 E.04518
G1 X79.109 Y100.515 E.04539
G1 X77.685 Y98.791 E.07011
G1 X77.376 Y98.359 E.01664
G1 X76.657 Y97.127 E.04473
G1 X76.013 Y95.832 E.04535
G1 X75.854 Y95.244 E.0191
G1 X75.623 Y94.667 E.01947
G1 X75.529 Y94.304 E.01178
G1 X75.387 Y93.887 E.0138
G1 X75.054 Y92.32 E.05023
G1 X74.951 Y91.599 E.02281
G1 X74.871 Y90.178 E.04463
G1 X74.875 Y89.38 E.02502
G1 X74.938 Y88.654 E.02284
G1 X75.292 Y86.429 E.07066
G1 X75.781 Y84.959 E.04858
G1 X75.941 Y84.569 E.0132
G1 X76.089 Y84.062 E.01655
G1 X76.554 Y83.118 E.033
G1 X77.024 Y82.278 E.03018
G1 X77.68 Y81.201 E.03956
G1 X79.461 Y79.149 E.08518
M204 P1000
G1 X79.746 Y79.397 F9000
M204 P800
G1 F1200
G1 X79.798 Y79.336 E.00251
G1 X82.423 Y77.357 E.10305
G1 X84.539 Y76.275 E.07452
G1 X87.399 Y75.459 E.09328
G1 X88.699 Y75.319 E.04098
G1 X90.176 Y75.241 E.04639
G1 X92.112 Y75.401 E.06091
G1 X93.987 Y75.798 E.06009
G1 X95.087 Y76.241 E.0372
G1 X96.239 Y76.631 E.03811
G1 X96.82 Y76.913 E.02025
G1 X97.585 Y77.367 E.02792
G1 X98.852 Y78.178 E.04714
G1 X100.002 Y79.181 E.04785
G1 X100.931 Y80.07 E.04033
G1 X101.899 Y81.345 E.05019
G1 X102.227 Y81.88 E.01966
G1 X102.458 Y82.194 E.01224
G1 X103.051 Y83.209 E.03685
G1 X103.805 Y84.763 E.05417
G1 X104.532 Y87.389 E.08543
G1 X104.76 Y90.155 E.087
G1 X104.68 Y91.588 E.04503
G1 X104.419 Y93.031 E.04596
G1 X104.103 Y94.357 E.04275
G1 X103.635 Y95.641 E.04285
G1 X103.257 Y96.434 E.02754
G1 X102.828 Y97.185 E.0271
G1 X101.693 Y98.999 E.06709
G1 X101.069 Y99.753 E.03068
G1 X100.01 Y100.837 E.04751
G1 X99.382 Y101.391 E.02628
G1 X98.4 Y102.1 E.03798
G1 X97.625 Y102.619 E.02923
G1 X97.085 Y102.925 E.01947
G1 X95.716 Y103.566 E.04738
G1 X94.591 Y104.027 E.03812
G1 X93.349 Y104.367 E.04038
G1 X92.091 Y104.609 E.04018
G1 X90.516 Y104.728 E.04951
G1 X89.344 Y104.699 E.03676
G1 X88.531 Y104.638 E.02556
G1 X87.895 Y104.615 E.01996
G1 X86.426 Y104.321 E.04698
G1 X85.258 Y103.962 E.03832
G1 X83.986 Y103.482 E.04264
G1 X81.538 Y102.061 E.08874
G1 X80.405 Y101.205 E.04452
G1 X79.375 Y100.247 E.0441
G1 X77.98 Y98.556 E.06873
G1 X77.688 Y98.147 E.01575
G1 X76.986 Y96.943 E.04372
G1 X76.36 Y95.682 E.04413
G1 X76.213 Y95.126 E.01804
G1 X75.978 Y94.539 E.01982
G1 X75.891 Y94.196 E.0111
G1 X75.754 Y93.797 E.01322
G1 X75.425 Y92.247 E.04967
G1 X75.327 Y91.57 E.02146
G1 X75.248 Y90.174 E.04383
G1 X75.252 Y89.39 E.02459
G1 X75.313 Y88.694 E.0219
G1 X75.662 Y86.504 E.06954
G1 X76.137 Y85.085 E.04692
G1 X76.298 Y84.693 E.01329
G1 X76.435 Y84.213 E.01563
G1 X76.886 Y83.298 E.03199
G1 X77.348 Y82.471 E.02969
G1 X77.994 Y81.411 E.03895
G1 X79.706 Y79.442 E.08181
M204 P1000
G1 X79.99 Y79.689 F9000
M204 P800
G1 F1200
G1 X80.069 Y79.6 E.00373
G1 X82.64 Y77.666 E.10087
G1 X84.66 Y76.632 E.07115
G1 X87.456 Y75.832 E.09119
G1 X88.724 Y75.695 E.04
G1 X90.158 Y75.618 E.04503
G1 X92.046 Y75.772 E.05938
G1 X93.892 Y76.163 E.05918
G1 X94.956 Y76.595 E.036
G1 X96.085 Y76.975 E.03736
G1 X96.634 Y77.241 E.01912
G1 X97.385 Y77.687 E.02737
G1 X98.636 Y78.488 E.0466
G1 X99.751 Y79.462 E.0464
G1 X100.66 Y80.332 E.03946
G1 X101.592 Y81.565 E.04848
G1 X101.914 Y82.091 E.01932
G1 X102.138 Y82.394 E.01182
G1 X102.715 Y83.38 E.03583
G1 X103.458 Y84.912 E.05339
G1 X104.164 Y87.472 E.08326
G1 X104.383 Y90.146 E.08413
G1 X104.304 Y91.556 E.04426
G1 X104.049 Y92.958 E.0447
G1 X103.739 Y94.259 E.04193
G1 X103.284 Y95.503 E.04153
G1 X102.92 Y96.265 E.02649
G1 X102.506 Y96.988 E.0261
G1 X101.38 Y98.788 E.06658
G1 X100.795 Y99.495 E.02877
G1 X99.745 Y100.568 E.04706
G1 X99.154 Y101.091 E.02476
G1 X98.182 Y101.793 E.03758
G1 X97.421 Y102.301 E.0287
G1 X96.918 Y102.587 E.01813
G1 X95.56 Y103.222 E.04701
G1 X94.48 Y103.666 E.03661
G1 X93.27 Y103.998 E.03933
G1 X92.03 Y104.237 E.03961
G1 X90.516 Y104.351 E.04759
G1 X89.359 Y104.322 E.03631
G1 X88.551 Y104.261 E.02539
G1 X87.953 Y104.242 E.01875
G1 X86.528 Y103.957 E.04559
G1 X85.385 Y103.607 E.03746
G1 X84.133 Y103.134 E.04196
G1 X81.756 Y101.753 E.08622
G1 X80.655 Y100.922 E.04326
G1 X79.641 Y99.98 E.0434
G1 X78.276 Y98.322 E.06734
G1 X78.001 Y97.936 E.01486
G1 X77.315 Y96.759 E.04272
G1 X76.707 Y95.533 E.0429
G1 X76.573 Y95.009 E.01696
G1 X76.333 Y94.411 E.0202
G1 X76.252 Y94.089 E.01042
G1 X76.12 Y93.707 E.01267
G1 X75.795 Y92.175 E.0491
G1 X75.703 Y91.54 E.02011
G1 X75.625 Y90.17 E.04303
G1 X75.629 Y89.399 E.02416
G1 X75.687 Y88.739 E.0208
G1 X76.032 Y86.576 E.06866
G1 X76.492 Y85.211 E.04515
G1 X76.656 Y84.815 E.01343
G1 X76.781 Y84.364 E.0147
G1 X77.217 Y83.478 E.03096
G1 X77.672 Y82.665 E.0292
G1 X78.308 Y81.621 E.03833
G1 X79.951 Y79.735 E.07843
M204 P1000
G1 X80.235 Y79.983 F9000
M204 P800
G1 F1200
G1 X80.339 Y79.863 E.00497
G1 X82.022 Y78.618 E.06565
G1 X82.856 Y77.976 E.03301
G1 X84.782 Y76.99 E.06782
G1 X87.513 Y76.205 E.08909
G1 X88.75 Y76.072 E.03902
G1 X90.141 Y75.994 E.04367
G1 X91.98 Y76.144 E.05784
G1 X93.798 Y76.528 E.05826
G1 X94.825 Y76.948 E.03479
G1 X95.932 Y77.32 E.03664
G1 X96.449 Y77.569 E.01797
G1 X97.184 Y78.006 E.02681
G1 X98.421 Y78.798 E.04605
G1 X99.499 Y79.742 E.04494
G1 X100.388 Y80.593 E.03859
G1 X101.286 Y81.784 E.04675
G1 X101.601 Y82.302 E.01901
G1 X101.818 Y82.594 E.01141
G1 X102.379 Y83.551 E.03479
G1 X103.111 Y85.061 E.05261
G1 X103.796 Y87.555 E.08108
G1 X104.006 Y90.138 E.08127
G1 X103.928 Y91.523 E.04348
G1 X103.679 Y92.886 E.04344
G1 X103.381 Y94.14 E.04042
G1 X102.933 Y95.365 E.04089
G1 X102.583 Y96.096 E.02542
G1 X102.184 Y96.791 E.02511
G1 X101.067 Y98.578 E.06606
G1 X100.52 Y99.236 E.02687
G1 X99.48 Y100.3 E.04662
G1 X98.925 Y100.791 E.02325
G1 X97.97 Y101.481 E.03696
G1 X97.217 Y101.984 E.02838
G1 X96.752 Y102.249 E.01679
G1 X95.404 Y102.879 E.04664
G1 X94.369 Y103.306 E.0351
G1 X93.178 Y103.632 E.03873
G1 X91.969 Y103.865 E.03859
G1 X90.516 Y103.974 E.04568
G1 X89.373 Y103.945 E.03587
G1 X88.57 Y103.885 E.02524
G1 X88.011 Y103.869 E.01753
G1 X86.629 Y103.594 E.04419
G1 X85.513 Y103.252 E.0366
G1 X84.281 Y102.787 E.04128
G1 X81.974 Y101.445 E.08369
G1 X80.904 Y100.639 E.042
G1 X79.907 Y99.712 E.04269
G1 X78.571 Y98.088 E.06594
G1 X78.313 Y97.724 E.01397
G1 X77.644 Y96.574 E.04171
G1 X77.054 Y95.385 E.04164
G1 X76.933 Y94.894 E.01586
G1 X76.688 Y94.283 E.02061
G1 X76.615 Y93.982 E.00974
G1 X76.487 Y93.616 E.01214
G1 X76.165 Y92.103 E.04852
G1 X76.079 Y91.511 E.01876
G1 X76.003 Y90.166 E.04223
G1 X76.006 Y89.409 E.02373
G1 X76.062 Y88.781 E.01976
G1 X76.146 Y88.335 E.01425
G1 X76.403 Y86.649 E.05346
G1 X76.847 Y85.338 E.0434
G1 X77.014 Y84.936 E.01364
G1 X77.128 Y84.513 E.01375
G1 X77.549 Y83.657 E.02991
G1 X77.996 Y82.858 E.02871
G1 X78.621 Y81.831 E.03771
G1 X80.195 Y80.028 E.07504
M204 P1000
G1 X80.479 Y80.276 F9000
M204 P800
G1 F1200
G1 X80.609 Y80.127 E.0062
G1 X82.249 Y78.919 E.06386
G1 X83.073 Y78.285 E.03259
G1 X84.937 Y77.334 E.06562
G1 X87.57 Y76.579 E.08588
G1 X88.777 Y76.448 E.03807
G1 X90.123 Y76.371 E.0423
G1 X91.937 Y76.518 E.05705
G1 X93.702 Y76.894 E.05657
G1 X94.693 Y77.302 E.0336
G1 X95.78 Y77.665 E.03594
G1 X96.263 Y77.898 E.01682
G1 X96.983 Y78.325 E.02625
G1 X98.206 Y79.107 E.0455
G1 X99.247 Y80.023 E.04347
G1 X100.116 Y80.855 E.03773
G1 X100.978 Y82.003 E.04502
G1 X101.288 Y82.514 E.01873
G1 X101.498 Y82.794 E.01099
G1 X102.043 Y83.722 E.03375
G1 X102.764 Y85.21 E.05182
G1 X103.427 Y87.637 E.07889
G1 X103.629 Y90.155 E.07921
G1 X103.552 Y91.489 E.0419
G1 X103.309 Y92.813 E.04219
G1 X103.017 Y94.042 E.03962
G1 X102.582 Y95.226 E.03955
G1 X102.246 Y95.927 E.02436
G1 X101.863 Y96.594 E.02413
G1 X100.755 Y98.367 E.06555
G1 X100.245 Y98.978 E.02496
G1 X99.215 Y100.031 E.04618
G1 X98.697 Y100.491 E.02173
G1 X97.757 Y101.17 E.03634
G1 X97.013 Y101.667 E.02805
G1 X96.585 Y101.91 E.01545
G1 X95.248 Y102.536 E.04627
G1 X94.258 Y102.945 E.0336
G1 X93.099 Y103.263 E.03768
G1 X91.909 Y103.492 E.03802
G1 X90.517 Y103.597 E.04377
G1 X89.387 Y103.568 E.03543
G1 X88.588 Y103.508 E.02513
M73 P2 R44
G1 X88.068 Y103.496 E.01631
