; generated by PrusaSlicer 2.5.0+MacOS-x64 on 2023-02-03 at 22:34:18 UTC


;
;

;
;
; 

; external perimeters extrusion width = 0.45mm
; perimeters extrusion width = 0.45mm
; infill extrusion width = 0.45mm
; solid infill extrusion width = 0.45mm
; top infill extrusion width = 0.40mm
; support material extrusion width = 0.35mm
; first layer extrusion width = 0.42mm

M73 P0 R47
M201 X2500 Y2500 Z400 E5000 ; sets maximum accelerations, mm/sec^2
M203 X180 Y180 Z12 E80 ; sets maximum feedrates, mm / sec
M204 P1250 R1250 T2500 ; sets acceleration (P, T) and retract acceleration (R), mm/sec^2
M205 X8.00 Y8.00 Z2.00 E10.00 ; sets the jerk limits, mm/sec
M205 S0 T0 ; sets the minimum extruding and travel feed rate, mm/sec
M107
;TYPE:Custom
M862.3 P "MINI" ; printer model check
G90 ; use absolute coordinates
M83 ; extruder relative mode
M104 S170 ; set extruder temp for bed leveling
M140 S60 ; set bed temp
M109 R170 ; wait for bed leveling temp
M190 S60 ; wait for bed temp
M204 T1250 ; set travel acceleration
G28 ; home all without mesh bed level
G29 ; mesh bed leveling 
M204 T2500 ; restore travel acceleration
M104 S215 ; set extruder temp
G92 E0
G1 Y-2 X179 F2400
G1 Z3 F720
M109 S215 ; wait for extruder temp

; intro line
G1 X170 F1000
G1 Z0.2 F720
G1 X110 E8 F900
G1 X40 E10 F700
G92 E0

M221 S95 ; set flow
G21 ; set units to millimeters
G90 ; use absolute coordinates
M83 ; use relative distances for extrusion
M900 K0.2 ; Filament gcode LA 1.5
; ; Filament gcode LA 1.0
M107
;LAYER_CHANGE
;Z:0.2
;HEIGHT:0.2
;BEFORE_LAYER_CHANGE
G92 E0.0
;0.2


G1 E-3.2 F4200
G1 Z.2 F720
;AFTER_LAYER_CHANGE
;0.2
G1 Z.4
G1 X64.432 Y66.639 F9000
G1 Z.2 F720
G1 E3.2 F2400
M204 P800
;TYPE:Skirt/Brim
;WIDTH:0.42
G1 F1200
G1 X66.113 Y65.943 E.05704
G1 X113.887 Y65.943 E1.49794
G1 X115.568 Y66.639 E.05704
G1 X119.439 Y71.862 E.20384
G1 X119.895 Y73.262 E.04616
G1 X119.895 Y110.032 E1.1529
G1 X119.199 Y111.713 E.05704
G1 X116.212 Y114.7 E.13247
G1 X114.531 Y115.397 E.05704
G1 X65.469 Y115.397 E1.53829
G1 X63.788 Y114.7 E.05704
G1 X60.801 Y111.713 E.13247
G1 X60.105 Y110.032 E.05704
G1 X60.105 Y73.262 E1.1529
G1 X60.561 Y71.862 E.04616
G1 X64.396 Y66.687 E.20196
M204 P1000
G1 E-2.24 F4200
;WIPE_START
G1 F7200
G1 X65.906 Y66.033 E-.912
;WIPE_END
G1 E-.048 F4200
G1 Z.4 F720
G1 X65.782 Y70.901 F9000
G1 Z.2 F720
G1 E3.2 F2400
M204 P800
G1 F1200
G1 X67.164 Y70.561 E.04464
G1 X112.808 Y70.565 E1.43112
G1 X113.828 Y70.759 E.03256
M73 P1 R47
G1 X114.806 Y71.174 E.03333
G1 X115.931 Y72.07 E.04508
G1 X116.823 Y73.408 E.05044
G1 X117.232 Y74.953 E.05011
G1 X117.232 Y108.366 E1.04765
G1 X116.61 Y110.334 E.06469
G1 X116.138 Y110.982 E.02515
G1 X115.463 Y111.665 E.0301
G1 X114.218 Y112.393 E.0452
G1 X112.836 Y112.733 E.04464
G1 X67.135 Y112.733 E1.43293
G1 X65.168 Y112.111 E.06469
G1 X64.519 Y111.639 E.02515
G1 X63.836 Y110.964 E.0301
G1 X63.108 Y109.72 E.0452
G1 X62.768 Y108.337 E.04464
G1 X62.768 Y74.928 E1.04754
G1 X63.39 Y72.96 E.06469
G1 X63.862 Y72.312 E.02515
G1 X64.537 Y71.629 E.0301
G1 X65.73 Y70.931 E.04332
M204 P1000
G1 X65.9 Y71.26 F9000
M204 P800
G1 F1200
G1 X67.188 Y70.938 E.04163
G1 X112.789 Y70.942 E1.4298
G1 X113.736 Y71.125 E.03022
G1 X114.633 Y71.51 E.03062
G1 X115.672 Y72.346 E.0418
G1 X116.467 Y73.536 E.0449
G1 X116.855 Y74.978 E.04682
G1 X116.855 Y108.338 E1.04596
G1 X116.287 Y110.137 E.05917
M73 P1 R46
G1 X115.859 Y110.727 E.02285
G1 X115.212 Y111.383 E.02887
G1 X114.101 Y112.034 E.04039
G1 X112.813 Y112.356 E.04163
G1 X67.164 Y112.356 E1.43129
G1 X65.364 Y111.788 E.05917
G1 X64.774 Y111.36 E.02285
G1 X64.119 Y110.713 E.02887
G1 X63.468 Y109.602 E.04039
G1 X63.145 Y108.314 E.04163
G1 X63.145 Y74.956 E1.0459
G1 X63.713 Y73.157 E.05917
G1 X64.141 Y72.567 E.02285
G1 X64.788 Y71.911 E.02887
G1 X65.848 Y71.291 E.03851
M204 P1000
G1 X66.036 Y71.617 F9000
M204 P800
G1 F1200
G1 X67.211 Y71.315 E.03801
G1 X112.77 Y71.319 E1.4285
G1 X113.642 Y71.491 E.02785
G1 X114.458 Y71.845 E.0279
G1 X115.411 Y72.619 E.03848
G1 X116.136 Y73.718 E.04126
G1 X116.478 Y75.003 E.0417
G1 X116.478 Y108.309 E1.04429
G1 X115.963 Y109.942 E.05368
G1 X115.58 Y110.473 E.02054
G1 X114.962 Y111.1 E.0276
G1 X113.935 Y111.694 E.03719
G1 X112.79 Y111.979 E.03701
G1 X67.192 Y111.979 E1.42967
G1 X65.56 Y111.464 E.05368
G1 X65.028 Y111.081 E.02054
G1 X64.402 Y110.463 E.0276
G1 X63.807 Y109.436 E.03719
G1 X63.522 Y108.291 E.03701
G1 X63.522 Y74.985 E1.04428
G1 X64.037 Y73.352 E.05368
G1 X64.42 Y72.821 E.02054
G1 X65.038 Y72.194 E.0276
G1 X65.985 Y71.647 E.03428
M204 P1000
G1 X66.17 Y71.967 F9000
M204 P800
G1 F1200
G1 X67.234 Y71.692 E.03447
G1 X112.751 Y71.696 E1.42715
G1 X113.547 Y71.856 E.02544
G1 X114.282 Y72.179 E.02518
G1 X115.148 Y72.891 E.03516
G1 X115.803 Y73.897 E.03763
G1 X116.1 Y75.027 E.03663
G1 X116.1 Y108.28 E1.04263
G1 X115.639 Y109.747 E.04821
M73 P2 R46
G1 X115.301 Y110.219 E.0182
G1 X114.711 Y110.817 E.02634
G1 X113.817 Y111.335 E.03241
G1 X112.766 Y111.602 E.03399
G1 X67.221 Y111.602 E1.42802
G1 X65.754 Y111.14 E.04821
G1 X65.282 Y110.802 E.0182
G1 X64.684 Y110.212 E.02634
G1 X64.166 Y109.318 E.03241
G1 X63.9 Y108.267 E.03399
G1 X63.9 Y75.014 E1.04263
G1 X64.361 Y73.547 E.04821
G1 X64.699 Y73.075 E.0182
G1 X65.289 Y72.477 E.02634
G1 X66.118 Y71.997 E.03005
M204 P1000
G1 X66.303 Y72.317 F9000
M204 P800
G1 F1200
G1 X67.259 Y72.069 E.03095
G1 X112.733 Y72.073 E1.4258
G1 X113.414 Y72.209 E.02178
G1 X114.105 Y72.514 E.02369
G1 X114.885 Y73.163 E.03181
G1 X115.447 Y74.024 E.03225
G1 X115.723 Y75.052 E.03337
G1 X115.723 Y108.251 E1.04094
G1 X115.314 Y109.553 E.04279
G1 X115.022 Y109.965 E.01584
G1 X114.46 Y110.534 E.02506
G1 X113.697 Y110.977 E.02768
G1 X112.741 Y111.225 E.03095
G1 X67.25 Y111.225 E1.42635
G1 X65.948 Y110.815 E.04279
G1 X65.536 Y110.523 E.01584
G1 X64.967 Y109.962 E.02506
G1 X64.525 Y109.198 E.02768
G1 X64.277 Y108.243 E.03095
G1 X64.277 Y75.043 E1.04096
G1 X64.686 Y73.741 E.04279
G1 X64.978 Y73.329 E.01584
G1 X65.54 Y72.76 E.02506
G1 X66.251 Y72.347 E.0258
M204 P1000
G1 X66.425 Y72.675 F9000
M204 P800
G1 F1200
G1 X67.284 Y72.446 E.02787
G1 X112.713 Y72.45 E1.4244
G1 X113.317 Y72.574 E.01933
G1 X113.926 Y72.847 E.02093
G1 X114.619 Y73.432 E.02843
G1 X115.113 Y74.202 E.0287
G1 X115.346 Y75.077 E.02837
G1 X115.346 Y108.223 E1.03927
G1 X114.989 Y109.361 E.03741
G1 X114.742 Y109.712 E.01346
G1 X114.21 Y110.251 E.02376
G1 X113.575 Y110.619 E.023
G1 X112.716 Y110.848 E.02787
G1 X67.279 Y110.848 E1.42466
G1 X66.141 Y110.49 E.03741
G1 X65.789 Y110.243 E.01346
G1 X65.25 Y109.711 E.02376
G1 X64.882 Y109.076 E.023
G1 X64.654 Y108.217 E.02786
G1 X64.654 Y75.071 E1.03927
G1 X65.011 Y73.933 E.03741
G1 X65.258 Y73.582 E.01346
G1 X65.79 Y73.043 E.02376
G1 X66.373 Y72.705 E.02112
M204 P1000
G1 X66.549 Y73.032 F9000
M204 P800
G1 F1200
G1 X67.31 Y72.823 E.02475
G1 X112.693 Y72.827 E1.42295
G1 X113.217 Y72.939 E.01681
G1 X113.745 Y73.178 E.01817
G1 X114.353 Y73.699 E.0251
G1 X114.757 Y74.33 E.02351
G1 X114.969 Y75.102 E.0251
G1 X114.969 Y108.194 E1.03756
G1 X114.662 Y109.17 E.03208
G1 X114.462 Y109.459 E.01103
G1 X113.959 Y109.968 E.02244
G1 X113.451 Y110.262 E.01839
G1 X112.69 Y110.471 E.02475
G1 X67.307 Y110.471 E1.42294
G1 X66.332 Y110.164 E.03208
M73 P3 R46
G1 X66.042 Y109.963 E.01103
G1 X65.533 Y109.46 E.02244
G1 X65.239 Y108.953 E.01839
G1 X65.031 Y108.192 E.02475
G1 X65.031 Y75.1 E1.03756
G1 X65.338 Y74.124 E.03208
G1 X65.538 Y73.835 E.01103
G1 X66.041 Y73.326 E.02244
G1 X66.497 Y73.062 E.01651
M204 P1000
G1 X66.674 Y73.388 F9000
M204 P800
G1 F1200
G1 X67.337 Y73.201 E.02159
G1 X112.671 Y73.204 E1.42144
G1 X113.115 Y73.302 E.01423
G1 X113.561 Y73.508 E.01541
G1 X114.084 Y73.965 E.02178
G1 X114.403 Y74.461 E.01847
G1 X114.592 Y75.129 E.02179
G1 X114.592 Y108.165 E1.03581
G1 X114.335 Y108.981 E.02682
G1 X114.181 Y109.207 E.00857
G1 X113.709 Y109.685 E.02108
G1 X113.326 Y109.906 E.01386
G1 X112.663 Y110.093 E.02158
G1 X67.336 Y110.093 E1.4212
G1 X66.52 Y109.836 E.02682
G1 X66.295 Y109.682 E.00857
G1 X65.816 Y109.21 E.02108
G1 X65.595 Y108.827 E.01386
G1 X65.408 Y108.165 E.02158
G1 X65.408 Y75.129 E1.03581
G1 X65.665 Y74.313 E.02682
G1 X65.819 Y74.087 E.00857
G1 X66.291 Y73.609 E.02108
G1 X66.622 Y73.418 E.01198
M204 P1000
G1 X66.802 Y73.743 F9000
M204 P800
G1 F1200
G1 X67.365 Y73.578 E.01838
G1 X112.649 Y73.581 E1.41986
G1 X113.009 Y73.664 E.01157
M73 P3 R45
G1 X113.374 Y73.837 E.01266
G1 X113.814 Y74.229 E.01848
G1 X114.049 Y74.594 E.01362
G1 X114.215 Y75.157 E.01841
G1 X114.215 Y108.136 E1.03402
G1 X114.006 Y108.795 E.02167
G1 X113.899 Y108.955 E.00606
G1 X113.459 Y109.402 E.01967
G1 X113.198 Y109.551 E.00942
G1 X112.635 Y109.716 E.01838
G1 X67.366 Y109.716 E1.41941
G1 X66.707 Y109.508 E.02167
G1 X66.546 Y109.401 E.00606
G1 X66.099 Y108.96 E.01967
G1 X65.95 Y108.699 E.00942
G1 X65.785 Y108.137 E.01838
G1 X65.785 Y75.158 E1.03402
G1 X65.994 Y74.499 E.02167
G1 X66.101 Y74.339 E.00606
G1 X66.541 Y73.892 E.01967
G1 X66.75 Y73.773 E.00754
M204 P1000
G1 X66.937 Y74.096 F9000
M204 P800
G1 F1200
G1 X67.394 Y73.955 E.015
G1 X112.627 Y73.958 E1.41826
G1 X112.866 Y74.014 E.00767
G1 X113.186 Y74.165 E.01111
G1 X113.541 Y74.49 E.01508
G1 X113.697 Y74.731 E.00902
G1 X113.838 Y75.187 E.01495
G1 X113.838 Y108.106 E1.03216
G1 X113.676 Y108.612 E.01667
G1 X113.614 Y108.708 E.00358
G1 X113.243 Y109.092 E.01672
G1 X113.063 Y109.198 E.00656
G1 X112.606 Y109.339 E.015
G1 X67.395 Y109.339 E1.41755
G1 X66.889 Y109.177 E.01667
G1 X66.793 Y109.115 E.00358
G1 X66.41 Y108.744 E.01672
G1 X66.303 Y108.564 E.00656
G1 X66.162 Y108.107 E.015
G1 X66.162 Y75.188 E1.03216
G1 X66.324 Y74.682 E.01667
G1 X66.386 Y74.586 E.00358
G1 X66.757 Y74.202 E.01672
G1 X66.885 Y74.126 E.00468
M204 P1000
M73 P4 R45
G1 X67.079 Y74.446 F9000
M204 P800
G1 F1200
G1 X67.426 Y74.332 E.01143
G1 X112.605 Y74.335 E1.41657
G1 X112.722 Y74.363 E.00377
G1 X112.996 Y74.492 E.0095
G1 X113.265 Y74.747 E.0116
G1 X113.348 Y74.874 E.00476
G1 X113.461 Y75.219 E.01136
G1 X113.461 Y108.075 E1.0302
G1 X113.324 Y108.466 E.01299
G1 X113.021 Y108.786 E.0138
G1 X112.921 Y108.848 E.00372
G1 X112.574 Y108.962 E.01143
G1 X67.426 Y108.962 E1.41559
G1 X67.035 Y108.825 E.01299
G1 X66.715 Y108.523 E.0138
G1 X66.653 Y108.422 E.00372
G1 X66.539 Y108.075 E.01143
G1 X66.539 Y75.219 E1.0302
G1 X66.676 Y74.828 E.01299
G1 X66.979 Y74.508 E.0138
G1 X67.028 Y74.477 E.00184
M204 P1000
G1 X67.234 Y74.79 F9000
M204 P800
G1 F1200
G1 X67.461 Y74.709 E.00757
G1 X112.553 Y74.709 E1.41384
G1 X112.803 Y74.818 E.00856
G1 X113.002 Y75.026 E.00902
G1 X113.084 Y75.254 E.00757
G1 X113.084 Y108.04 E1.028
G1 X113.008 Y108.253 E.00709
G1 X112.79 Y108.488 E.01002
G1 X112.539 Y108.585 E.00845
G1 X67.461 Y108.585 E1.41339
G1 X67.248 Y108.509 E.00709
G1 X67.014 Y108.292 E.01002
G1 X66.916 Y108.04 E.00845
G1 X66.916 Y75.254 E1.028
G1 X66.992 Y75.041 E.00709
G1 X67.188 Y74.829 E.00904
M204 P1000
G1 X67.434 Y75.115 F9000
M204 P800
G1 F1200
G1 X67.503 Y75.086 E.00235
G1 X112.497 Y75.086 E1.41076
G1 X112.566 Y75.115 E.00235
G1 X112.678 Y75.226 E.00495
G1 X112.707 Y75.296 E.00235
G1 X112.707 Y107.998 E1.02537
G1 X112.678 Y108.068 E.00235
G1 X112.566 Y108.179 E.00495
G1 X112.497 Y108.208 E.00235
G1 X67.503 Y108.208 E1.41076
G1 X67.434 Y108.179 E.00235
G1 X67.322 Y108.068 E.00495
G1 X67.293 Y107.998 E.00235
G1 X67.293 Y75.296 E1.02537
G1 X67.322 Y75.226 E.00235
G1 X67.391 Y75.157 E.00307
M204 P1000
; printing object new-back.stl id:0 copy 0
G1 E-2.24 F4200
;WIPE_START
G1 F7200
G1 X67.503 Y75.086 E-.0734
G1 X69.016 Y75.086 E-.83861
;WIPE_END
G1 E-.048 F4200
G1 Z.4 F720
G1 X76.724 Y69.865 F9000
G1 Z.2 F720
G1 E3.2 F2400
M204 P800
;TYPE:Support material
G1 F1200
G1 X67.362 Y69.865 E.29355
G1 X66.191 Y70.09 E.03739
G1 X66.191 Y68.509 E.04958
G1 X76.724 Y68.509 E.33026
G1 X76.724 Y69.808 E.04074
M204 P1000
G1 X76.174 Y69.695 F9000
M204 P800
G1 F1200
G1 X76.174 Y68.848 E.02655
G1 X75.755 Y68.848 E.01314
G1 X75.755 Y69.525 E.02123
G1 X75.336 Y69.525 E.01314
G1 X75.336 Y68.848 E.02123
G1 X74.917 Y68.848 E.01314
G1 X74.917 Y69.525 E.02123
G1 X74.498 Y69.525 E.01314
G1 X74.498 Y68.848 E.02123
G1 X74.079 Y68.848 E.01314
G1 X74.079 Y69.525 E.02123
G1 X73.66 Y69.525 E.01314
G1 X73.66 Y68.848 E.02123
G1 X73.241 Y68.848 E.01314
G1 X73.241 Y69.525 E.02123
G1 X72.822 Y69.525 E.01314
G1 X72.822 Y68.848 E.02123
G1 X72.403 Y68.848 E.01314
G1 X72.403 Y69.525 E.02123
G1 X71.984 Y69.525 E.01314
G1 X71.984 Y68.848 E.02123
G1 X71.565 Y68.848 E.01314
G1 X71.565 Y69.525 E.02123
G1 X71.146 Y69.525 E.01314
G1 X71.146 Y68.848 E.02123
G1 X70.727 Y68.848 E.01314
G1 X70.727 Y69.525 E.02123
G1 X70.308 Y69.525 E.01314
G1 X70.308 Y68.848 E.02123
G1 X69.889 Y68.848 E.01314
G1 X69.889 Y69.525 E.02123
G1 X69.47 Y69.525 E.01314
G1 X69.47 Y68.848 E.02123
G1 X69.051 Y68.848 E.01314
G1 X69.051 Y69.525 E.02123
G1 X68.632 Y69.525 E.01314
G1 X68.632 Y68.848 E.02123
G1 X68.213 Y68.848 E.01314
G1 X68.213 Y69.525 E.02123
G1 X67.794 Y69.525 E.01314
G1 X67.794 Y68.848 E.02123
G1 X67.375 Y68.848 E.01314
G1 X67.375 Y69.525 E.02123
G1 X66.956 Y69.597 E.01333
G1 X66.956 Y68.848 E.02348
G1 X66.537 Y68.848 E.01314
G1 X66.537 Y69.851 E.03143
M204 P1000
G1 E-2.24 F4200
;WIPE_START
G1 F7200
G1 X66.537 Y68.848 E-.55553
G1 X66.956 Y68.848 E-.23218
G1 X66.956 Y69.072 E-.12429
;WIPE_END
G1 E-.048 F4200
G1 Z.4 F720
G1 X113.809 Y70.1 F9000
G1 Z.2 F720
G1 E3.2 F2400
M204 P800
G1 F1200
G1 X112.639 Y69.865 E.03742
G1 X103.276 Y69.865 E.29358
G1 X103.276 Y68.509 E.04251
M73 P5 R45
G1 X113.809 Y68.509 E.33026
G1 X113.809 Y70.043 E.04811
M204 P1000
G1 X113.463 Y69.857 F9000
M204 P800
G1 F1200
G1 X113.463 Y68.848 E.03163
G1 X113.044 Y68.848 E.01314
G1 X113.044 Y69.6 E.02357
G1 X112.625 Y69.525 E.01334
G1 X112.625 Y68.848 E.02123
G1 X112.206 Y68.848 E.01314
G1 X112.206 Y69.525 E.02123
G1 X111.787 Y69.525 E.01314
G1 X111.787 Y68.848 E.02123
G1 X111.368 Y68.848 E.01314
G1 X111.368 Y69.525 E.02123
G1 X110.949 Y69.525 E.01314
G1 X110.949 Y68.848 E.02123
G1 X110.53 Y68.848 E.01314
G1 X110.53 Y69.525 E.02123
G1 X110.111 Y69.525 E.01314
G1 X110.111 Y68.848 E.02123
G1 X109.692 Y68.848 E.01314
G1 X109.692 Y69.525 E.02123
G1 X109.273 Y69.525 E.01314
G1 X109.273 Y68.848 E.02123
G1 X108.854 Y68.848 E.01314
G1 X108.854 Y69.525 E.02123
G1 X108.435 Y69.525 E.01314
G1 X108.435 Y68.848 E.02123
G1 X108.016 Y68.848 E.01314
G1 X108.016 Y69.525 E.02123
G1 X107.597 Y69.525 E.01314
G1 X107.597 Y68.848 E.02123
G1 X107.178 Y68.848 E.01314
G1 X107.178 Y69.525 E.02123
G1 X106.759 Y69.525 E.01314
G1 X106.759 Y68.848 E.02123
G1 X106.34 Y68.848 E.01314
G1 X106.34 Y69.525 E.02123
G1 X105.921 Y69.525 E.01314
G1 X105.921 Y68.848 E.02123
G1 X105.502 Y68.848 E.01314
G1 X105.502 Y69.525 E.02123
G1 X105.083 Y69.525 E.01314
G1 X105.083 Y68.848 E.02123
G1 X104.664 Y68.848 E.01314
G1 X104.664 Y69.525 E.02123
G1 X104.245 Y69.525 E.01314
G1 X104.245 Y68.848 E.02123
G1 X103.826 Y68.848 E.01314
G1 X103.826 Y69.695 E.02655
M204 P1000
G1 E-2.24 F4200
;WIPE_START
G1 F7200
G1 X103.826 Y68.848 E-.46923
G1 X104.245 Y68.848 E-.23218
G1 X104.245 Y69.228 E-.21059
;WIPE_END
G1 E-.048 F4200
G1 Z.4 F720
G1 X68.169 Y75.962 F9000
G1 Z.2 F720
G1 E3.2 F2400
M204 P800
;TYPE:Perimeter
;WIDTH:0.419999
G1 F1200
G1 X111.831 Y75.962 E1.369
G1 X111.831 Y107.332 E.98361
G1 X68.169 Y107.332 E1.369
G1 X68.169 Y76.022 E.98173
M204 P1000
G1 X67.792 Y75.585 F9000
M204 P800
;TYPE:External perimeter
G1 F1200
G1 X112.208 Y75.585 E1.39264
G1 X112.208 Y107.71 E1.00726
G1 X67.792 Y107.71 E1.39264
G1 X67.792 Y75.645 E1.00537
M204 P1000
G1 X68.183 Y75.667 F9000
M73 P5 R44
G1 E-2.24 F4200
;WIPE_START
G1 F7200
G1 X69.438 Y75.642 E-.912
;WIPE_END
G1 E-.048 F4200
G1 Z.4 F720
G1 X89.348 Y83.937 F9000
G1 Z.2 F720
G1 E3.2 F2400
M204 P800
;TYPE:Perimeter
G1 F1200
G1 X89.28 Y83.896 E.00249
G1 X89.003 Y83.58 E.01318
G1 X88.839 Y83.196 E.01309
G1 X88.801 Y82.956 E.00762
G1 X88.839 Y82.54 E.0131
G1 X89.003 Y82.156 E.01307
G1 X89.28 Y81.84 E.01318
G1 X89.641 Y81.626 E.01317
G1 X90.136 Y81.527 E.01585
G1 X90.631 Y81.626 E.01581
G1 X90.992 Y81.84 E.01316
G1 X91.268 Y82.156 E.01318
G1 X91.432 Y82.54 E.01307
G1 X91.47 Y82.956 E.01309
G1 X91.378 Y83.363 E.0131
G1 X91.164 Y83.724 E.01316
G1 X90.847 Y84.001 E.01318
